Prize Luts/Video/Black.cube
LUT_3D_SIZE 6
0.000000 0.000000 0.000000
0.042421 0.009243 0.009243
0.161447 0.018577 0.024585
0.333198 0.042421 0.057869
0.608819 0.073356 0.115990
0.929846 0.095481 0.187353
0.037389 0.048497 0.056887
0.041574 0.054455 0.062219
0.186387 0.095101 0.050041
0.355071 0.126586 0.079482
0.633291 0.170939 0.125898
0.931464 0.201858 0.198469
0.155971 0.179158 0.197511
0.160534 0.184694 0.202741
0.175061 0.202353 0.220834
0.372258 0.254528 0.215005
0.699006 0.362240 0.185466
0.940983 0.395191 0.262180
0.328438 0.370364 0.394091
0.336024 0.373602 0.397310
0.349158 0.391179 0.414890
0.384551 0.426760 0.450494
0.633479 0.513069 0.484095
0.943541 0.569334 0.370477
0.618668 0.658185 0.680165
0.616886 0.656424 0.678428
0.628750 0.667976 0.687935
0.651817 0.690453 0.711999
0.676899 0.713808 0.733385
0.822307 0.781985 0.777449
0.870657 0.890362 0.896831
0.870657 0.890333 0.898209
0.874652 0.894108 0.903136
0.887311 0.906025 0.912330
0.913592 0.928019 0.933785
0.946005 0.956078 0.958612
0.013067 0.017071 0.020980
0.020657 0.028205 0.032236
0.136239 0.059802 0.097742
0.326534 0.047997 0.126303
0.603187 0.041242 0.176745
0.924213 0.000000 0.230408
0.042591 0.054443 0.062219
0.067771 0.072162 0.079237
0.180162 0.089942 0.099550
0.345899 0.112767 0.128606
0.627874 0.140243 0.177135
0.933436 0.151587 0.237103
0.162771 0.188391 0.204382
0.163903 0.190817 0.205926
0.181297 0.207535 0.223841
0.408386 0.269380 0.211211
0.699949 0.340975 0.229293
0.947292 0.375642 0.299791
0.331674 0.369842 0.395797
0.337172 0.375357 0.399030
0.352316 0.392274 0.416301
0.381134 0.422668 0.446636
0.687891 0.517700 0.468108
0.951059 0.570112 0.378693
0.624827 0.664159 0.686091
0.625256 0.664235 0.686148
0.638075 0.676945 0.698626
0.655423 0.693574 0.714150
0.680801 0.717116 0.736322
0.865192 0.785978 0.772061
0.874030 0.893377 0.903200
0.875726 0.895162 0.903198
0.878759 0.897977 0.906252
0.890055 0.906306 0.915078
0.915801 0.928988 0.934754
0.946017 0.955954 0.959515
0.056887 0.070000 0.079482
0.070209 0.086124 0.094848
0.097167 0.115218 0.128601
0.185093 0.200989 0.220998
0.548457 0.173271 0.328556
0.921212 0.000000 0.369456
0.094524 0.112502 0.121733
0.101127 0.119651 0.131778
0.117514 0.139745 0.152114
0.254571 0.196823 0.242925
0.603083 0.162564 0.319969
0.926154 0.000000 0.335687
0.170679 0.197671 0.212406
0.186313 0.214072 0.230729
0.245690 0.263550 0.279281
0.411252 0.269702 0.288034
0.687935 0.308042 0.334094
0.938794 0.344687 0.388137
0.361729 0.403140 0.426855
0.374698 0.416919 0.441293
0.390835 0.430519 0.457334
0.421226 0.462502 0.490220
0.739651 0.549444 0.487904
0.948245 0.567363 0.465563
0.647066 0.685377 0.704588
0.648914 0.687199 0.707896
0.656953 0.693720 0.714040
0.671969 0.709301 0.727639
0.697064 0.731648 0.751009
0.896852 0.795674 0.773525
0.878120 0.897362 0.903902
0.880749 0.899736 0.907273
0.882007 0.899886 0.909333
0.896840 0.914594 0.920768
0.922425 0.934164 0.939531
0.953601 0.963088 0.965449
0.147722 0.170847 0.189180
0.156898 0.180075 0.198467
0.176929 0.204948 0.222507
0.215424 0.244566 0.263269
0.351586 0.391331 0.415029
0.786554 0.506402 0.639559
0.173806 0.201813 0.219898
0.182683 0.210714 0.227098
0.201331 0.229807 0.248124
0.234221 0.266594 0.286038
0.375645 0.415696 0.440942
0.818891 0.493411 0.635476
0.264942 0.298959 0.321565
0.277178 0.314153 0.335500
0.300431 0.338486 0.361529
0.331601 0.370417 0.394298
0.523648 0.502539 0.549881
0.887676 0.474806 0.613545
0.381501 0.420405 0.444130
0.389216 0.431638 0.455328
0.439035 0.481514 0.508712
0.543704 0.566562 0.587769
0.748845 0.552231 0.573816
0.940375 0.538926 0.567736
0.654456 0.691023 0.710983
0.662316 0.700264 0.720416
0.687007 0.722919 0.742203
0.705967 0.740578 0.759204
0.729349 0.762966 0.780142
0.943364 0.811896 0.778776
0.887327 0.906020 0.912358
0.890482 0.908533 0.915356
0.896804 0.912072 0.920235
0.911263 0.925909 0.931726
0.932299 0.944202 0.948771
0.965385 0.970213 0.974115
0.313245 0.351424 0.376993
0.323873 0.362041 0.385687
0.352198 0.390379 0.415947
0.400405 0.442262 0.466442
0.467407 0.509934 0.533574
0.631854 0.670964 0.692808
0.347672 0.387554 0.411252
0.357196 0.395847 0.419834
0.382651 0.422931 0.448975
0.425720 0.467463 0.494566
0.479227 0.521710 0.547054
0.645040 0.683798 0.705456
0.469656 0.512139 0.538186
0.466836 0.509288 0.535038
0.488431 0.530749 0.556481
0.525185 0.566814 0.590279
0.559884 0.602406 0.626203
0.691087 0.726546 0.746174
0.579172 0.620160 0.642663
0.583065 0.623547 0.647066
0.606977 0.647176 0.670970
0.633397 0.672062 0.693870
0.645296 0.683616 0.704588
0.783710 0.773688 0.804292
0.666136 0.702652 0.723961
0.670787 0.706601 0.727490
0.693172 0.730018 0.747359
0.734492 0.766553 0.783809
0.799123 0.822756 0.835395
0.958974 0.806580 0.816382
0.890559 0.906008 0.915304
0.895657 0.911385 0.919432
0.906981 0.921673 0.928759
0.928072 0.940711 0.946265
0.949806 0.957690 0.961964
0.984358 0.987686 0.988657
0.726298 0.758523 0.778642
0.730333 0.762621 0.778789
0.742709 0.774536 0.790597
0.762193 0.793320 0.808920
0.774860 0.805418 0.819210
0.786627 0.813221 0.828388
0.738635 0.770477 0.788948
0.742528 0.774272 0.791242
0.756135 0.785064 0.800838
0.766969 0.797412 0.812931
0.777426 0.806104 0.821386
0.790563 0.816711 0.831803
0.783636 0.813027 0.825304
0.783228 0.810188 0.825104
0.786184 0.813229 0.828368
0.794995 0.821327 0.835558
0.804371 0.831749 0.844600
0.811894 0.837279 0.849182
0.820222 0.845367 0.856166
0.817115 0.842456 0.856628
0.830432 0.852378 0.865914
0.831681 0.855942 0.867202
0.838559 0.862762 0.873288
0.838583 0.862737 0.873304
0.869967 0.889570 0.898159
0.868671 0.888243 0.896487
0.875834 0.893748 0.903160
0.888290 0.904115 0.913388
0.902035 0.917563 0.924685
0.910619 0.925217 0.931121
0.948634 0.958394 0.960914
0.950173 0.958349 0.962199
0.958552 0.965395 0.967726
0.971962 0.977696 0.979656
0.989280 0.992278 0.992210
1.000026 1.000026 1.000026
