Prize Luts/Video/Black.cube
LUT_3D_SIZE 16
0.000000 0.000000 0.000000
0.004074 0.000813 0.000813
0.016204 0.003323 0.003323
0.042421 0.009243 0.009243
0.075971 0.010750 0.010750
0.113279 0.014617 0.019469
0.161447 0.018577 0.024585
0.213365 0.026640 0.033781
0.269702 0.033226 0.046465
0.333198 0.042421 0.057869
0.417960 0.056017 0.081667
0.502539 0.064648 0.096499
0.608819 0.073356 0.115990
0.725013 0.077730 0.134844
0.831377 0.082110 0.161018
0.929846 0.095481 0.187353
0.004074 0.004074 0.007731
0.004074 0.006973 0.007132
0.016513 0.009321 0.007731
0.046468 0.014195 0.011365
0.076853 0.020013 0.015411
0.114162 0.025114 0.019374
0.162188 0.032577 0.026640
0.213719 0.036948 0.034888
0.270254 0.047147 0.044439
0.333372 0.056228 0.056017
0.408385 0.065517 0.074940
0.497922 0.078612 0.089950
0.616366 0.089539 0.114199
0.729870 0.096814 0.133951
0.837960 0.105194 0.159673
0.935460 0.118709 0.191295
0.014617 0.020231 0.022591
0.016204 0.022353 0.026318
0.020179 0.024938 0.029926
0.045797 0.033972 0.030909
0.093791 0.046054 0.024210
0.131349 0.055467 0.030746
0.174753 0.061752 0.039058
0.224578 0.070255 0.044951
0.279913 0.078970 0.056017
0.345899 0.090263 0.068119
0.425492 0.103541 0.089185
0.512838 0.116906 0.102870
0.621162 0.127981 0.119581
0.734236 0.137687 0.139875
0.838668 0.150829 0.167255
0.932134 0.164159 0.199030
0.037389 0.048497 0.056887
0.035718 0.046424 0.052937
0.038391 0.051183 0.056887
0.041574 0.054455 0.062219
0.069337 0.064997 0.066740
0.130444 0.077035 0.055166
0.186387 0.095101 0.050041
0.233944 0.104976 0.056017
0.291466 0.115307 0.067249
0.355071 0.126586 0.079482
0.430261 0.141158 0.095396
0.520460 0.154882 0.109311
0.633291 0.170939 0.125898
0.746032 0.185442 0.148272
0.843065 0.194983 0.172152
0.931464 0.201858 0.198469
0.072478 0.089316 0.098052
0.075971 0.089331 0.101620
0.074397 0.091604 0.100378
0.078251 0.094659 0.104857
0.084772 0.101936 0.112182
0.098050 0.111538 0.119581
0.174176 0.122770 0.106098
0.248991 0.146324 0.093427
0.311335 0.165439 0.090594
0.375984 0.179868 0.099665
0.450338 0.193494 0.112380
0.543711 0.212295 0.126794
0.647643 0.227697 0.141874
0.753269 0.241841 0.161088
0.852950 0.259601 0.189922
0.929806 0.258336 0.209646
0.104297 0.126917 0.135870
0.108772 0.126946 0.140425
0.110562 0.128752 0.142247
0.110562 0.131515 0.144993
0.116862 0.136027 0.149557
0.122273 0.145148 0.158706
0.134054 0.154268 0.167910
0.219898 0.169919 0.161447
0.310408 0.195736 0.144074
0.400759 0.231546 0.127691
0.474949 0.247558 0.131348
0.569744 0.272046 0.145902
0.673290 0.287279 0.157797
0.773582 0.303066 0.179897
0.863266 0.319005 0.207737
0.938235 0.324024 0.232915
0.155971 0.179158 0.197511
0.160534 0.183745 0.199207
0.156897 0.182859 0.198469
0.160534 0.184694 0.202741
0.161447 0.189325 0.203825
0.169752 0.197654 0.211504
0.175061 0.202353 0.220834
0.182896 0.210919 0.229411
0.263626 0.229302 0.227755
0.372258 0.254528 0.215005
0.487324 0.293461 0.194710
0.605382 0.343338 0.175854
0.699006 0.362240 0.185466
0.794152 0.380608 0.211287
0.876014 0.390006 0.238460
0.940983 0.395191 0.262180
0.204028 0.232217 0.250864
0.206111 0.236905 0.255555
0.205886 0.235249 0.253852
0.208706 0.238769 0.257428
0.210583 0.240641 0.259305
0.218028 0.248162 0.266901
0.222704 0.253466 0.274839
0.230373 0.263435 0.282889
0.241435 0.272356 0.293341
0.321978 0.294299 0.299605
0.450338 0.322468 0.282889
0.596160 0.372904 0.264433
0.726976 0.421924 0.238808
0.818032 0.453294 0.245968
0.886421 0.458591 0.269297
0.946265 0.457087 0.291384
0.263070 0.296315 0.317017
0.265589 0.298791 0.322349
0.264958 0.298210 0.320662
0.267783 0.301050 0.323486
0.269702 0.305227 0.325007
0.274418 0.309587 0.331294
0.281542 0.317730 0.338517
0.291052 0.327421 0.349158
0.300903 0.337879 0.361530
0.314567 0.352703 0.376375
0.382694 0.381768 0.396970
0.546114 0.418968 0.383621
0.693030 0.460171 0.368423
0.811886 0.501870 0.346498
0.894259 0.530251 0.327491
0.940993 0.515757 0.306605
0.328438 0.370364 0.394091
0.333198 0.371370 0.395108
0.331674 0.369841 0.393533
0.336024 0.373602 0.397310
0.337941 0.376091 0.399828
0.342690 0.380853 0.405524
0.349158 0.391179 0.414890
0.362108 0.400294 0.424002
0.373528 0.411673 0.436018
0.384551 0.426760 0.450494
0.399828 0.441792 0.465511
0.469272 0.481851 0.497784
0.633479 0.513069 0.484095
0.769063 0.548210 0.471238
0.874167 0.576414 0.450339
0.943541 0.569334 0.370477
0.427470 0.470285 0.498760
0.423628 0.466477 0.490220
0.427470 0.467452 0.494009
0.427470 0.470286 0.494009
0.432303 0.475035 0.498760
0.436946 0.479808 0.508226
0.447439 0.490200 0.517554
0.457925 0.500519 0.528857
0.471238 0.513699 0.539161
0.483509 0.525842 0.549327
0.489218 0.531374 0.559483
0.504387 0.546359 0.569745
0.541010 0.578544 0.604267
0.694826 0.614839 0.605206
0.822607 0.647732 0.596161
0.915286 0.645752 0.545805
0.525185 0.566682 0.590691
0.521577 0.564652 0.587783
0.521442 0.563014 0.586691
0.520460 0.563556 0.586691
0.523018 0.567598 0.590906
0.530634 0.572246 0.595238
0.535331 0.576792 0.603587
0.541925 0.585372 0.609725
0.551335 0.592308 0.615472
0.557661 0.601504 0.624982
0.566928 0.608524 0.631183
0.577686 0.618225 0.643611
0.591579 0.631717 0.654994
0.629206 0.666386 0.688296
0.760933 0.698637 0.693147
0.872596 0.710884 0.668986
0.618668 0.658185 0.680165
0.618359 0.657860 0.678428
0.616183 0.655726 0.677721
0.616886 0.656424 0.678428
0.618359 0.657851 0.679797
0.624058 0.663342 0.685338
0.628750 0.667976 0.687935
0.636489 0.675555 0.697241
0.646222 0.683439 0.705035
0.651817 0.690453 0.711999
0.663714 0.699508 0.719225
0.668747 0.706489 0.727745
0.676899 0.713808 0.733385
0.689601 0.723934 0.743906
0.715482 0.750327 0.768494
0.822307 0.781985 0.777449
0.701530 0.738676 0.755157
0.697241 0.732056 0.750648
0.694825 0.730421 0.748845
0.697241 0.731482 0.749699
0.699359 0.733942 0.752826
0.703174 0.737692 0.756698
0.708231 0.743004 0.761122
0.713229 0.747941 0.766504
0.719957 0.754863 0.771172
0.726599 0.760224 0.776735
0.734022 0.766094 0.782288
0.743343 0.774501 0.790879
0.751856 0.783271 0.797718
0.760933 0.791063 0.806765
0.770760 0.797668 0.813190
0.791494 0.819892 0.832654
0.795432 0.824583 0.836502
0.799091 0.825170 0.840032
0.794635 0.822702 0.836502
0.795432 0.821534 0.836502
0.795263 0.822078 0.836314
0.795432 0.825294 0.836502
0.799124 0.825856 0.837814
0.802580 0.828809 0.843258
0.809965 0.835527 0.847223
0.814231 0.839695 0.853508
0.821782 0.846925 0.857775
0.826140 0.851122 0.861887
0.833866 0.858089 0.869521
0.841756 0.866047 0.876563
0.847055 0.869996 0.880927
0.853508 0.874608 0.884850
0.870657 0.890362 0.896831
0.874033 0.893444 0.900032
0.870574 0.890312 0.898159
0.870657 0.890333 0.898209
0.870640 0.890308 0.900066
0.874030 0.893440 0.900032
0.874652 0.894108 0.903136
0.878736 0.896639 0.906235
0.884058 0.902888 0.909306
0.887311 0.906025 0.912330
0.893641 0.909118 0.918319
0.903858 0.918730 0.924805
0.913592 0.928019 0.933785
0.924707 0.936880 0.942389
0.934815 0.945450 0.950677
0.946005 0.956078 0.958612
0.003323 0.003323 0.003323
0.003477 0.004074 0.004074
0.009696 0.009243 0.012292
0.043258 0.009243 0.020144
0.083891 0.014617 0.028729
0.122273 0.022591 0.038326
0.166612 0.027952 0.047861
0.217107 0.030746 0.057314
0.272541 0.037389 0.067762
0.338863 0.047486 0.083239
0.413187 0.056017 0.097161
0.502644 0.061187 0.116327
0.615117 0.062393 0.134811
0.733385 0.057744 0.153685
0.839232 0.055166 0.175484
0.927020 0.034181 0.193677
0.006960 0.008179 0.008331
0.007833 0.008334 0.011154
0.023173 0.012755 0.013576
0.051301 0.016840 0.020453
0.085332 0.023271 0.030727
0.122999 0.030915 0.038083
0.167986 0.036781 0.047215
0.219586 0.044001 0.056140
0.277134 0.051235 0.068743
0.342079 0.061043 0.081292
0.414667 0.069857 0.095335
0.507613 0.077336 0.113651
0.620821 0.081053 0.133226
0.738213 0.079404 0.154223
0.842871 0.080045 0.174452
0.930531 0.067165 0.193428
0.022104 0.028357 0.032396
0.022651 0.028431 0.033226
0.024592 0.031894 0.036750
0.059117 0.040519 0.036881
0.094745 0.050299 0.042107
0.135334 0.058585 0.048338
0.177970 0.062515 0.055922
0.225559 0.070110 0.063610
0.280804 0.077145 0.073356
0.344404 0.086498 0.083423
0.419755 0.097167 0.100878
0.510127 0.106520 0.115516
0.622034 0.112940 0.133311
0.739647 0.120845 0.153438
0.847594 0.129205 0.179957
0.929401 0.122240 0.197800
0.041574 0.052695 0.058595
0.041407 0.052313 0.059117
0.042720 0.055047 0.061887
0.046294 0.059255 0.067010
0.086848 0.070220 0.067771
0.144609 0.085948 0.061187
0.189832 0.097118 0.065243
0.237863 0.103151 0.072263
0.292593 0.112473 0.080913
0.356032 0.121958 0.091472
0.432610 0.135094 0.107350
0.525008 0.146906 0.121234
0.638590 0.159536 0.136791
0.750989 0.168485 0.157579
0.852268 0.177706 0.183899
0.936801 0.182692 0.206131
0.075971 0.089504 0.102519
0.076717 0.090924 0.102680
0.077542 0.092178 0.104133
0.080952 0.095072 0.107604
0.082516 0.099111 0.112182
0.113802 0.109501 0.115953
0.185660 0.126649 0.105252
0.251770 0.147902 0.093961
0.308752 0.160248 0.100100
0.375278 0.172336 0.109501
0.449509 0.184237 0.122273
0.540092 0.199196 0.133729
0.652234 0.215053 0.149765
0.760995 0.229564 0.170918
0.860946 0.243187 0.199710
0.940300 0.249857 0.224188
0.104297 0.123316 0.135870
0.105194 0.126942 0.137515
0.108772 0.128381 0.141874
0.110750 0.131513 0.144993
0.113444 0.136048 0.149557
0.118682 0.141508 0.155050
0.149369 0.154163 0.166262
0.232612 0.170178 0.153762
0.316084 0.196055 0.137687
0.395797 0.225937 0.126794
0.474045 0.237866 0.136791
0.568837 0.257634 0.149736
0.677620 0.277891 0.166050
0.779201 0.291721 0.185465
0.870740 0.302743 0.214120
0.946017 0.310586 0.242131
0.152102 0.179151 0.193642
0.155971 0.180599 0.195119
0.156244 0.180059 0.197906
0.160067 0.183724 0.198261
0.163348 0.187612 0.202049
0.168090 0.193043 0.210012
0.174222 0.198490 0.216297
0.189634 0.213189 0.229804
0.282890 0.228454 0.219898
0.387730 0.258119 0.204365
0.507235 0.302657 0.184688
0.604101 0.330958 0.175857
0.706179 0.351634 0.193822
0.801165 0.366986 0.216850
0.884851 0.380522 0.247222
0.949103 0.379271 0.268382
0.200895 0.229043 0.247695
0.201370 0.229971 0.248121
0.201536 0.231451 0.249210
0.204645 0.233724 0.252325
0.208140 0.236358 0.256477
0.213365 0.243483 0.262204
0.219379 0.248421 0.267902
0.227189 0.257605 0.277368
0.239672 0.271738 0.291465
0.344159 0.291988 0.285810
0.475381 0.327006 0.270631
0.615777 0.373810 0.246602
0.736866 0.422294 0.227412
0.824358 0.439848 0.247481
0.894473 0.444995 0.273321
0.947004 0.433579 0.278808
0.260286 0.294065 0.317017
0.264915 0.298222 0.321108
0.263649 0.299337 0.320238
0.265800 0.299954 0.321805
0.269702 0.302963 0.326238
0.272851 0.307680 0.329779
0.280781 0.317158 0.340046
0.288607 0.325042 0.346180
0.297185 0.334418 0.357925
0.312405 0.350435 0.374027
0.415945 0.379263 0.380204
0.577951 0.417693 0.366685
0.719372 0.464602 0.350486
0.833236 0.504460 0.327146
0.905053 0.526027 0.323616
0.947942 0.505333 0.314207
0.328438 0.366599 0.390260
0.331460 0.369743 0.394091
0.331293 0.369158 0.392426
0.330134 0.368296 0.393826
0.334117 0.372341 0.399030
0.341967 0.380162 0.403807
0.348236 0.387172 0.413327
0.356964 0.395443 0.419103
0.365257 0.403920 0.429318
0.378990 0.418613 0.443211
0.392193 0.434318 0.458866
0.508749 0.476176 0.480949
0.669026 0.513067 0.468936
0.795693 0.546288 0.449665
0.894611 0.572364 0.425994
0.951319 0.568746 0.358802
0.427470 0.469310 0.494009
0.424325 0.465650 0.494144
0.427470 0.468013 0.495530
0.430771 0.470676 0.497208
0.433731 0.475751 0.500256
0.441710 0.484480 0.508226
0.448241 0.490925 0.515509
0.461669 0.504290 0.528498
0.468345 0.510935 0.536310
0.478021 0.520477 0.544666
0.484492 0.526795 0.554919
0.499622 0.541757 0.566816
0.576127 0.581636 0.596161
0.732090 0.616305 0.591972
0.851606 0.645282 0.581756
0.933371 0.641058 0.527193
0.521577 0.563112 0.589970
0.522495 0.563990 0.587959
0.522247 0.565154 0.589399
0.524902 0.566468 0.590765
0.526624 0.568911 0.592906
0.530634 0.572821 0.599786
0.537348 0.578902 0.601951
0.543142 0.584407 0.609520
0.548657 0.590089 0.614652
0.553036 0.594220 0.620047
0.563152 0.603894 0.626795
0.574555 0.614966 0.639992
0.588664 0.628881 0.651385
0.655768 0.666338 0.681997
0.792292 0.698596 0.681032
0.892432 0.707591 0.653390
0.623132 0.660805 0.682741
0.621295 0.659607 0.681495
0.620210 0.659069 0.681032
0.620079 0.659539 0.681538
0.622056 0.661453 0.683338
0.628126 0.667408 0.689235
0.634730 0.673774 0.695562
0.638984 0.677880 0.698406
0.644852 0.683205 0.704787
0.653334 0.690453 0.711611
0.659724 0.696091 0.716977
0.667451 0.704081 0.725009
0.677515 0.712469 0.732454
0.689346 0.724736 0.743509
0.730273 0.757430 0.772825
0.854980 0.783427 0.770461
0.705800 0.738635 0.756698
0.701749 0.736209 0.753828
0.700898 0.735723 0.754089
0.702103 0.736187 0.754554
0.704180 0.739762 0.757332
0.707867 0.743083 0.760933
0.712292 0.748014 0.765022
0.716024 0.750042 0.767268
0.721186 0.753654 0.771724
0.726430 0.759748 0.776925
0.732862 0.766531 0.782595
0.743380 0.775038 0.790984
0.751293 0.782813 0.798693
0.760396 0.791298 0.806920
0.767217 0.796813 0.812392
0.801401 0.821863 0.833149
0.801688 0.827747 0.840032
0.799123 0.825866 0.839728
0.800264 0.826474 0.838120
0.799043 0.825244 0.839846
0.799043 0.827269 0.840032
0.799124 0.825736 0.840032
0.803469 0.829192 0.843538
0.806315 0.832258 0.846476
0.810260 0.836291 0.849681
0.814566 0.840446 0.853147
0.821629 0.846713 0.860025
0.828410 0.851491 0.864139
0.835925 0.858182 0.869863
0.841935 0.864089 0.874880
0.850023 0.871194 0.881522
0.856970 0.877173 0.887380
0.873297 0.892825 0.902561
0.874505 0.893924 0.903115
0.875394 0.894930 0.901491
0.874030 0.893376 0.901702
0.876211 0.895507 0.903200
0.874660 0.893381 0.903136
0.878090 0.897160 0.906258
0.881041 0.899725 0.906495
0.884115 0.901932 0.909300
0.887245 0.906028 0.912345
0.896872 0.912050 0.920715
0.903858 0.918707 0.926968
0.913858 0.927996 0.934125
0.923120 0.935237 0.940830
0.934322 0.944981 0.950469
0.946016 0.955987 0.958981
0.005517 0.007030 0.010750
0.006960 0.010447 0.010750
0.009389 0.013254 0.014617
0.019374 0.025087 0.029104
0.058595 0.028604 0.047337
0.114164 0.032396 0.061116
0.162937 0.032396 0.068903
0.212225 0.033891 0.076396
0.268915 0.042591 0.088855
0.333198 0.050896 0.101618
0.406460 0.056017 0.117010
0.494011 0.058944 0.132649
0.609724 0.056887 0.150909
0.729128 0.046807 0.171307
0.840821 0.039393 0.194737
0.926972 0.011644 0.207719
0.010750 0.012926 0.014617
0.010750 0.015275 0.015797
0.013684 0.018584 0.021752
0.034966 0.026775 0.037417
0.076923 0.028676 0.046047
0.122273 0.032900 0.056538
0.165619 0.037622 0.064803
0.214308 0.043294 0.074752
0.271326 0.052062 0.087046
0.336419 0.060325 0.100732
0.408385 0.065517 0.113268
0.499733 0.072124 0.129656
0.615525 0.071982 0.148931
0.735679 0.067737 0.168703
0.843359 0.066377 0.192646
0.929703 0.044394 0.207017
0.022104 0.029378 0.035054
0.025181 0.033487 0.038089
0.032964 0.040216 0.046034
0.060154 0.043834 0.051232
0.092766 0.050764 0.058976
0.130229 0.057069 0.066291
0.171216 0.062255 0.072323
0.222246 0.069684 0.082256
0.276719 0.078149 0.092487
0.342155 0.087933 0.105358
0.414311 0.093791 0.117826
0.504389 0.102830 0.135326
0.616730 0.107453 0.149696
0.738064 0.112691 0.172485
0.844809 0.119240 0.195689
0.929160 0.110171 0.210693
0.043091 0.054252 0.061187
0.044777 0.057665 0.062745
0.047089 0.060060 0.068572
0.052499 0.064068 0.071608
0.098910 0.076058 0.070690
0.141337 0.086277 0.072302
0.182283 0.092495 0.078251
0.232919 0.101181 0.087376
0.287832 0.109696 0.096991
0.351545 0.120092 0.109096
0.425492 0.128808 0.118484
0.519546 0.141091 0.135370
0.632039 0.148713 0.152157
0.747402 0.159338 0.172974
0.850501 0.170030 0.198113
0.934980 0.170848 0.217390
0.081237 0.098200 0.107897
0.079130 0.096229 0.106154
0.081381 0.096709 0.108036
0.082749 0.100264 0.111292
0.087200 0.104713 0.116150
0.128600 0.116862 0.119973
0.191211 0.129912 0.107701
0.248002 0.145471 0.103625
0.304896 0.157329 0.113491
0.370042 0.167823 0.123235
0.444067 0.178260 0.137687
0.535953 0.193016 0.149403
0.647049 0.208443 0.164420
0.759218 0.223835 0.186717
0.858760 0.237690 0.213913
0.939791 0.246560 0.238408
0.108772 0.126946 0.140425
0.108772 0.127323 0.140791
0.109865 0.130740 0.141520
0.113279 0.132559 0.146077
0.116862 0.137480 0.151003
0.122273 0.145148 0.158706
0.159640 0.155050 0.162771
0.237714 0.172126 0.152296
0.323486 0.200755 0.140425
0.390830 0.218823 0.140972
0.468345 0.232329 0.151378
0.564713 0.251759 0.165156
0.674331 0.271637 0.177334
0.777470 0.285915 0.200356
0.869007 0.300084 0.226825
0.946081 0.308502 0.253407
0.155407 0.180981 0.194710
0.158399 0.183658 0.198168
0.158130 0.183189 0.199699
0.160534 0.185334 0.199935
0.163058 0.188404 0.205187
0.169752 0.193403 0.211504
0.174662 0.202325 0.218133
0.196729 0.215367 0.229681
0.293050 0.233047 0.221968
0.394980 0.260538 0.205277
0.503462 0.299593 0.185093
0.602076 0.326307 0.190063
0.703146 0.346194 0.206969
0.800977 0.363750 0.229252
0.884630 0.376600 0.260025
0.947862 0.377804 0.280281
0.200129 0.228285 0.246912
0.203398 0.231754 0.250343
0.203461 0.232665 0.251652
0.205459 0.234787 0.253391
0.208706 0.237163 0.256537
0.214118 0.243477 0.262204
0.218637 0.251384 0.270082
0.226702 0.257332 0.276737
0.245318 0.272361 0.292569
0.353125 0.294375 0.285386
0.478929 0.327680 0.267593
0.622407 0.377083 0.246314
0.734586 0.420636 0.236500
0.822607 0.436040 0.259066
0.892848 0.442386 0.285346
0.944571 0.426662 0.280902
0.264958 0.298224 0.321805
0.264958 0.298216 0.320873
0.266111 0.301516 0.321805
0.267903 0.302261 0.324269
0.269702 0.304579 0.326533
0.275507 0.311310 0.332424
0.281881 0.318305 0.340423
0.290737 0.325478 0.348807
0.299775 0.335240 0.358195
0.315920 0.352673 0.376192
0.426633 0.380034 0.380933
0.584726 0.421090 0.367860
0.725654 0.468118 0.352198
0.835936 0.506654 0.327624
0.903374 0.524117 0.333916
0.950754 0.509001 0.333385
0.330545 0.368135 0.391827
0.328919 0.366704 0.393359
0.332018 0.370213 0.393906
0.333198 0.372303 0.396023
0.337506 0.375656 0.399362
0.342690 0.380859 0.406154
0.349158 0.387836 0.413903
0.355784 0.396872 0.421133
0.364693 0.406010 0.431024
0.377542 0.418274 0.443210
0.396631 0.436657 0.463217
0.522247 0.478713 0.478877
0.677678 0.515263 0.467408
0.800197 0.547788 0.448730
0.896553 0.574068 0.423248
0.952144 0.570033 0.365230
0.427470 0.470286 0.494009
0.429778 0.470295 0.497208
0.429889 0.470994 0.497611
0.432303 0.474284 0.499854
0.436314 0.476959 0.504901
0.441710 0.484471 0.511021
0.451658 0.494297 0.519452
0.461577 0.504134 0.529994
0.470255 0.512727 0.539161
0.476602 0.521598 0.547143
0.486373 0.528618 0.554919
0.501538 0.544180 0.567815
0.587082 0.585062 0.598840
0.738826 0.618363 0.593396
0.853508 0.646343 0.580290
0.936551 0.644347 0.527250
0.522247 0.563902 0.591067
0.525204 0.568021 0.592961
0.525204 0.567767 0.591248
0.526269 0.568189 0.593243
0.528367 0.569980 0.595528
0.531309 0.575333 0.598322
0.537001 0.580011 0.604266
0.541544 0.583782 0.608148
0.548447 0.590101 0.613813
0.555024 0.596144 0.621246
0.563247 0.603997 0.628125
0.577375 0.617789 0.641448
0.591399 0.631560 0.653890
0.662974 0.670102 0.682736
0.795102 0.698001 0.678717
0.896859 0.709244 0.653396
0.621366 0.660738 0.684306
0.620462 0.659698 0.681664
0.621366 0.660786 0.682741
0.624326 0.662639 0.685147
0.626650 0.665088 0.687007
0.628749 0.667954 0.689023
0.635095 0.674135 0.694914
0.640459 0.679423 0.701052
0.646911 0.685356 0.706511
0.654262 0.691202 0.711908
0.661079 0.699482 0.718328
0.667172 0.704550 0.725633
0.678219 0.715646 0.733919
0.688110 0.725340 0.743656
0.735329 0.758407 0.772825
0.858827 0.785250 0.773552
0.705800 0.740268 0.756698
0.702855 0.738890 0.756107
0.702446 0.737016 0.755859
0.703588 0.739373 0.756698
0.707044 0.741473 0.760120
0.709612 0.742405 0.761512
0.713252 0.746658 0.765080
0.717216 0.750433 0.767836
0.722474 0.754909 0.772890
0.726411 0.760429 0.777469
0.734762 0.768524 0.784625
0.742365 0.774119 0.790904
0.753100 0.784415 0.800196
0.760975 0.790138 0.805872
0.767454 0.796595 0.812182
0.805861 0.822948 0.834876
0.799124 0.825547 0.840032
0.800637 0.827369 0.841482
0.799435 0.825936 0.839835
0.798729 0.825630 0.838905
0.798909 0.825469 0.839813
0.800970 0.828469 0.840032
0.802940 0.830869 0.843359
0.807545 0.833366 0.846274
0.812323 0.838053 0.849651
0.815615 0.841645 0.854018
0.823959 0.846450 0.860454
0.827633 0.852329 0.863248
0.836379 0.859343 0.870078
0.844131 0.866226 0.876616
0.850023 0.871237 0.881745
0.856795 0.877219 0.887380
0.872694 0.892237 0.900032
0.876050 0.895400 0.904750
0.874904 0.894302 0.903200
0.874505 0.893970 0.903200
0.876211 0.893846 0.903108
0.877394 0.895428 0.903136
0.879322 0.896995 0.905387
0.881465 0.899716 0.907698
0.885978 0.902894 0.911136
0.890229 0.907082 0.913808
0.896872 0.915028 0.921244
0.904781 0.919683 0.925778
0.914771 0.928027 0.933833
0.924427 0.936888 0.942415
0.934843 0.945796 0.949914
0.947015 0.955958 0.959480
0.013067 0.017071 0.020980
0.011223 0.017055 0.019065
0.016999 0.021040 0.025018
0.020657 0.028205 0.032236
0.037884 0.046765 0.054822
0.074277 0.061187 0.077730
0.136239 0.059802 0.097742
0.198045 0.055859 0.108731
0.263795 0.051574 0.119333
0.326534 0.047997 0.126303
0.403604 0.053461 0.141422
0.491652 0.053116 0.160187
0.603187 0.041242 0.176745
0.723961 0.015411 0.195018
0.834304 0.002621 0.214872
0.924213 0.000000 0.230408
0.017464 0.021848 0.025833
0.015797 0.021941 0.025899
0.019957 0.025519 0.029856
0.024722 0.033032 0.038089
0.042684 0.051518 0.059578
0.090782 0.056364 0.080089
0.150213 0.054781 0.093342
0.208909 0.051574 0.101703
0.268573 0.050896 0.110259
0.329779 0.054721 0.121392
0.406154 0.062576 0.138977
0.496064 0.063433 0.155622
0.612610 0.056190 0.174539
0.729784 0.038024 0.191235
0.836653 0.025833 0.210869
0.927375 0.004107 0.227638
0.030746 0.042384 0.048504
0.035554 0.046263 0.052838
0.038655 0.050188 0.058595
0.042987 0.055064 0.062926
0.066909 0.066658 0.078532
0.117756 0.068813 0.092328
0.167340 0.067566 0.098447
0.217028 0.068364 0.104211
0.272209 0.076249 0.115455
0.334727 0.083525 0.127468
0.408385 0.092717 0.142367
0.499442 0.096660 0.159863
0.611669 0.096702 0.177841
0.733385 0.094524 0.196427
0.842069 0.099348 0.218263
0.927429 0.085443 0.231279
0.042591 0.054443 0.062219
0.045459 0.057574 0.066071
0.053422 0.066065 0.074645
0.067771 0.072162 0.079237
0.102057 0.076923 0.083962
0.138601 0.083004 0.092172
0.180162 0.089942 0.099550
0.227345 0.094685 0.106777
0.281759 0.104274 0.115548
0.345899 0.112767 0.128606
0.421525 0.123162 0.144414
0.513444 0.133458 0.159156
0.627874 0.140243 0.177135
0.742405 0.144362 0.195294
0.845660 0.151349 0.216523
0.933436 0.151587 0.237103
0.081237 0.097307 0.107897
0.083526 0.099643 0.111657
0.088267 0.105419 0.117082
0.090802 0.108783 0.120155
0.095457 0.113046 0.123878
0.144437 0.122280 0.121385
0.194992 0.134830 0.116862
0.244409 0.142575 0.126965
0.299602 0.152495 0.134393
0.364341 0.162354 0.145631
0.438444 0.173801 0.156897
0.528920 0.184414 0.167910
0.641809 0.197629 0.186387
0.756758 0.214644 0.208916
0.858589 0.229160 0.237119
0.936776 0.234143 0.257605
0.113279 0.134219 0.147722
0.115952 0.134196 0.147722
0.115604 0.136031 0.149557
0.117756 0.138766 0.152296
0.121896 0.142577 0.156148
0.126794 0.149707 0.163312
0.178050 0.161828 0.163321
0.252741 0.180738 0.156897
0.321805 0.201154 0.148455
0.385942 0.213792 0.159072
0.462693 0.226491 0.170680
0.557357 0.241696 0.180842
0.668896 0.261409 0.199540
0.774217 0.278418 0.221576
0.866835 0.290137 0.247042
0.945030 0.301394 0.274175
0.162771 0.188391 0.204382
0.162893 0.188494 0.205020
0.164259 0.188931 0.205926
0.163903 0.190817 0.205926
0.167843 0.191978 0.210315
0.172521 0.198230 0.215219
0.181297 0.207535 0.223841
0.213571 0.220122 0.231841
0.308871 0.240206 0.224384
0.408386 0.269380 0.211211
0.500256 0.299635 0.200356
0.597510 0.320143 0.209627
0.699949 0.340975 0.229293
0.797723 0.357252 0.251269
0.883910 0.372626 0.280843
0.947292 0.375642 0.299791
0.204028 0.235824 0.254436
0.206981 0.236006 0.254678
0.206600 0.237389 0.256422
0.208449 0.239035 0.257701
0.212462 0.241105 0.260639
0.218028 0.247414 0.266901
0.224182 0.254834 0.274418
0.229293 0.262320 0.281025
