Prize Luts/Video/Cinematic Gold.cube
LUT_3D_SIZE 16
-0.007457 -0.006630 0.010147
0.007564 -0.006826 0.010081
0.029987 -0.007153 0.010695
0.043393 -0.007502 0.008246
0.103937 -0.008251 0.004410
0.184446 -0.009785 0.002156
0.268368 -0.009726 0.002984
0.356127 -0.005291 0.002780
0.440626 0.009122 0.002226
0.519986 0.011615 0.002406
0.601034 0.010552 0.002693
0.679954 0.011802 0.003065
0.752024 0.018965 0.003995
0.814105 0.025851 0.005139
0.859788 0.030538 0.005925
0.888227 0.032564 0.006273
-0.007285 0.006781 0.010263
0.007926 0.006493 0.010226
0.029316 0.009570 0.010763
0.043753 0.009228 0.007294
0.107036 0.010010 0.003609
0.188282 0.016338 0.001851
0.271780 0.024637 0.001493
0.358861 0.031543 0.001613
0.443313 0.036054 0.002144
0.523435 0.038085 0.002406
0.604990 0.037919 0.002654
0.684296 0.040078 0.003125
0.756420 0.045930 0.004018
0.817984 0.052155 0.005202
0.862687 0.056324 0.006040
0.889282 0.057492 0.006316
-0.007748 0.028634 0.011550
0.011009 0.028231 0.011218
0.028710 0.028980 0.011305
0.050613 0.034823 0.008018
0.119761 0.038788 0.003581
0.205443 0.046587 0.002098
0.291470 0.053813 0.001738
0.376969 0.059028 0.001989
0.459480 0.063510 0.002446
0.539888 0.064274 0.002729
0.621615 0.064233 0.003034
0.699647 0.068028 0.003581
0.769462 0.074347 0.004619
0.829354 0.080477 0.005859
0.872164 0.083859 0.006585
0.897798 0.083864 0.006742
-0.008233 0.059148 0.014420
0.012564 0.058779 0.013594
0.032680 0.061479 0.013475
0.048549 0.069300 0.010627
0.136956 0.079917 0.005537
0.239571 0.086900 0.002930
0.334118 0.091933 0.002693
0.422822 0.096388 0.002892
0.504672 0.098578 0.003180
0.582840 0.100805 0.003418
0.658861 0.103837 0.003853
0.732541 0.109024 0.004639
0.801264 0.115930 0.005845
0.858206 0.122126 0.007152
0.897518 0.125414 0.008174
0.921004 0.123974 0.008455
-0.008626 0.097749 0.021152
0.013430 0.097510 0.020452
0.035987 0.101200 0.019477
0.042985 0.113782 0.016232
0.136836 0.123573 0.010390
0.270080 0.139368 0.007446
0.374861 0.145440 0.005537
0.463805 0.148838 0.004619
0.547913 0.149171 0.004546
0.629414 0.150968 0.004678
0.706456 0.154529 0.005292
0.778291 0.159171 0.006123
0.842159 0.164381 0.007446
0.893437 0.169733 0.009215
0.928427 0.172195 0.010461
0.949699 0.169029 0.010569
-0.008892 0.139813 0.028863
0.014086 0.139755 0.028277
0.037472 0.143729 0.026045
0.046055 0.160952 0.023860
0.116681 0.179370 0.016707
0.274481 0.198924 0.014044
0.415692 0.215828 0.012819
0.509637 0.219849 0.009452
0.594441 0.221170 0.009065
0.673918 0.219701 0.008914
0.750397 0.218986 0.009241
0.820161 0.220797 0.010426
0.879305 0.223293 0.011616
0.926439 0.228755 0.013650
0.960028 0.231405 0.015316
0.977821 0.225436 0.015715
-0.009148 0.186465 0.037508
0.014685 0.186616 0.037191
0.038109 0.191124 0.035151
0.058483 0.213675 0.031854
0.061622 0.236994 0.022124
0.263607 0.272660 0.017011
0.442114 0.296004 0.022814
0.567884 0.307668 0.022621
0.654835 0.307912 0.021733
0.732829 0.305226 0.021187
0.804288 0.301959 0.019827
0.870902 0.300556 0.018892
0.930850 0.302651 0.018943
0.980371 0.311496 0.021869
1.016152 0.317739 0.025974
1.031149 0.308153 0.025191
-0.009394 0.239830 0.051281
0.015245 0.240514 0.051524
0.039074 0.245220 0.049523
0.064075 0.271655 0.042349
0.045760 0.298106 0.032695
0.192330 0.336714 0.020790
0.449881 0.380156 0.033815
0.618351 0.401731 0.046308
0.721688 0.405433 0.044208
0.808234 0.406052 0.039660
0.885834 0.407322 0.034854
0.954360 0.408739 0.030683
1.012312 0.413486 0.030281
1.056188 0.424101 0.037919
1.086019 0.432461 0.049938
1.100336 0.421408 0.047537
-0.009585 0.301091 0.073857
0.015692 0.302074 0.074302
0.039983 0.307462 0.074086
0.064285 0.334050 0.070765
0.081401 0.360857 0.052649
0.092333 0.383642 0.034182
0.369584 0.439683 0.034961
0.632711 0.491961 0.060688
0.779803 0.510571 0.068065
0.884607 0.523141 0.060605
0.963245 0.527693 0.055591
1.021711 0.529503 0.056125
1.064970 0.535040 0.072669
1.093851 0.543320 0.102547
1.112295 0.545999 0.126645
1.123420 0.532497 0.128899
-0.009678 0.366929 0.097824
0.015946 0.368163 0.098466
0.040624 0.372263 0.097810
0.065029 0.393864 0.093476
0.087385 0.427382 0.072826
0.077150 0.439360 0.049134
0.254678 0.483500 0.033384
0.556044 0.553438 0.052234
0.798496 0.612065 0.081451
0.926953 0.627531 0.096658
1.002870 0.634415 0.109965
1.049170 0.637091 0.124535
1.082946 0.643346 0.153486
1.107187 0.649889 0.189657
1.124111 0.650653 0.214527
1.135119 0.636125 0.215586
-0.009771 0.430781 0.117030
0.016098 0.432157 0.117564
0.040998 0.435271 0.116640
0.065554 0.453632 0.110728
0.089953 0.495152 0.090412
0.105426 0.514027 0.068503
0.172556 0.533957 0.048601
0.461541 0.609014 0.043516
0.771037 0.688783 0.091644
0.940997 0.720798 0.150226
1.020005 0.731311 0.177338
1.064999 0.738670 0.202333
1.095869 0.741946 0.236687
1.117908 0.744065 0.273627
1.132864 0.741167 0.295895
1.142933 0.725825 0.297944
-0.009816 0.491062 0.128115
0.016150 0.492557 0.128437
0.041149 0.496181 0.126049
0.065716 0.517486 0.120335
0.089535 0.567637 0.111736
0.107061 0.597691 0.101104
0.165690 0.607398 0.087719
0.413337 0.672040 0.063121
0.744789 0.754131 0.108250
0.941685 0.799929 0.195597
1.031154 0.818967 0.241810
1.077067 0.825789 0.278339
1.104812 0.823162 0.315615
1.122823 0.818433 0.347682
1.135854 0.811880 0.360859
1.145412 0.794320 0.356924
-0.009816 0.557365 0.141584
0.016135 0.558912 0.141609
0.041113 0.564171 0.139474
0.065082 0.591553 0.138352
0.087557 0.643839 0.145476
0.118905 0.676994 0.152889
0.203870 0.689907 0.149491
0.420813 0.737021 0.135716
0.735212 0.810335 0.169941
0.928899 0.857064 0.263073
1.024414 0.875840 0.314667
1.076807 0.884127 0.350152
1.106923 0.883080 0.381477
1.123572 0.876814 0.408281
1.135825 0.868847 0.418015
1.145318 0.853280 0.412990
-0.009816 0.619905 0.151201
0.016033 0.621467 0.151426
0.040790 0.629133 0.152443
0.063275 0.662301 0.163422
0.093266 0.706833 0.183770
0.161321 0.729145 0.201098
0.268800 0.748014 0.209017
0.472907 0.791582 0.220550
0.751815 0.853270 0.264708
0.918547 0.893669 0.338119
1.009083 0.907293 0.382793
1.062659 0.912313 0.411762
1.102183 0.915514 0.429570
1.122719 0.911101 0.440648
1.135444 0.903107 0.447602
1.145094 0.889914 0.445788
-0.009724 0.667647 0.161063
0.015869 0.668779 0.161477
0.040152 0.678397 0.165609
0.061664 0.713500 0.184737
0.112937 0.746993 0.210165
0.195995 0.760959 0.232521
0.325509 0.790270 0.251483
0.527778 0.835260 0.279937
0.773274 0.886086 0.322031
0.917448 0.916207 0.374558
1.004070 0.926206 0.408696
1.054207 0.929978 0.435246
1.091346 0.932204 0.450298
1.118265 0.932926 0.454520
1.136159 0.927541 0.455483
1.144495 0.911515 0.453123
-0.009198 0.724534 0.174118
0.016224 0.725520 0.174124
0.039803 0.735888 0.179037
0.061765 0.770441 0.199897
0.116045 0.799600 0.226571
0.203186 0.811598 0.252010
0.346463 0.847837 0.282662
0.555615 0.891161 0.321661
0.778380 0.931186 0.357690
0.914575 0.951654 0.401025
1.001857 0.957213 0.429418
1.049708 0.957641 0.455115
1.086265 0.962022 0.472373
1.109993 0.962996 0.477568
1.131455 0.963477 0.477728
1.155715 0.963525 0.477695
-0.007748 -0.256481 -0.057692
0.005574 -0.257566 -0.058356
0.028254 -0.267915 -0.063109
0.040370 -0.281173 -0.072294
0.103104 -0.294177 -0.086534
0.181570 -0.306181 -0.097134
0.252708 -0.322191 -0.104033
0.316006 -0.343535 -0.110421
0.369370 -0.364043 -0.118267
0.429410 -0.378078 -0.124294
0.508231 -0.385224 -0.124533
0.597455 -0.388245 -0.120880
0.682658 -0.389655 -0.117595
0.755065 -0.390110 -0.114687
0.806695 -0.390137 -0.112819
0.837263 -0.389980 -0.112013
-0.006853 0.041139 0.015439
0.008133 0.042399 0.015819
0.031536 0.044824 0.013570
0.047551 0.043053 0.009332
0.115201 0.043782 0.012327
0.193388 0.048721 0.014008
0.274357 0.058120 0.016002
0.359472 0.066236 0.018649
0.440578 0.072070 0.021423
0.518525 0.075790 0.023684
0.598935 0.077467 0.025581
0.678061 0.078685 0.027079
0.750716 0.080261 0.028353
0.812796 0.081348 0.029277
0.857985 0.081759 0.029723
0.888497 0.084512 0.033331
-0.005851 0.029324 0.025930
-0.008788 0.029669 0.020826
0.027813 0.029617 0.019856
0.052408 0.033006 0.014683
0.125327 0.034529 0.008630
0.209246 0.041684 0.006371
0.293011 0.048508 0.005832
0.377505 0.053826 0.006200
0.458862 0.058022 0.006818
0.538922 0.058677 0.007336
0.620515 0.058322 0.007912
0.698428 0.061786 0.008603
0.767920 0.067898 0.009618
0.827859 0.073949 0.010755
0.870808 0.077696 0.011278
0.899985 0.080858 0.020168
-0.004653 0.059958 0.032524
-0.011623 0.060013 0.021127
0.028214 0.061849 0.018799
0.047053 0.069429 0.015674
0.140022 0.078516 0.009513
0.242192 0.084409 0.006500
0.335477 0.088953 0.005872
0.423046 0.093101 0.005912
0.504051 0.094829 0.006171
0.581641 0.096451 0.006450
0.657105 0.099090 0.006987
0.730410 0.104225 0.007971
0.799151 0.111198 0.009413
0.856179 0.117405 0.010824
0.895609 0.120646 0.011773
0.923274 0.120933 0.021437
-0.003761 0.098257 0.041052
-0.012378 0.098279 0.026953
0.029661 0.101045 0.023605
0.038844 0.113584 0.020559
0.136786 0.123848 0.014199
0.272201 0.138601 0.010837
0.376497 0.143763 0.008785
0.465020 0.146655 0.007882
0.548240 0.145933 0.007694
0.629633 0.147622 0.007903
0.706427 0.151240 0.008665
0.777942 0.155842 0.009658
0.841886 0.161121 0.011234
0.892747 0.166304 0.013095
0.927361 0.168564 0.014270
0.950810 0.166853 0.024056
-0.003387 0.140645 0.049797
-0.012919 0.140271 0.034291
0.031265 0.143126 0.030652
0.043364 0.160098 0.027929
0.112171 0.179307 0.020559
0.274877 0.199355 0.017542
0.417193 0.215443 0.016232
0.510304 0.218566 0.012963
0.594783 0.219000 0.012537
0.674145 0.217184 0.012468
0.750659 0.216468 0.012958
0.820114 0.218070 0.014250
0.879047 0.220700 0.015700
0.925831 0.225880 0.017871
0.958870 0.228055 0.019457
0.979140 0.224132 0.030106
-0.003176 0.187744 0.060039
-0.013460 0.186941 0.043206
0.031959 0.190102 0.040104
0.055541 0.212078 0.035999
0.055294 0.236363 0.026302
0.260042 0.272605 0.020679
0.442934 0.296510 0.026624
0.568814 0.307232 0.026438
0.655411 0.306836 0.025592
0.732906 0.303674 0.025114
0.804268 0.300015 0.023889
0.870444 0.298283 0.023172
0.930388 0.300455 0.023628
0.979391 0.309088 0.026715
1.014946 0.314993 0.030643
1.032005 0.307255 0.040983
-0.003176 0.241888 0.074991
-0.013805 0.240584 0.057578
0.033053 0.243994 0.054537
0.060088 0.269525 0.047183
0.045611 0.297276 0.038064
0.186603 0.336115 0.025170
0.447583 0.380371 0.037868
0.619231 0.402059 0.050707
0.722365 0.405151 0.048599
0.808812 0.405320 0.044126
0.886152 0.406096 0.039446
0.954391 0.407163 0.035631
1.012407 0.412029 0.035911
1.056362 0.422531 0.043659
1.086184 0.430940 0.055300
1.100627 0.421303 0.066646
-0.003387 0.303199 0.098353
-0.014110 0.301957 0.080787
0.034124 0.305881 0.079027
0.061935 0.331634 0.077135
0.077912 0.360266 0.058506
0.075778 0.382322 0.038856
0.363999 0.439156 0.039066
0.631815 0.492155 0.065467
0.780631 0.511279 0.073219
0.885371 0.523365 0.065821
0.964044 0.527508 0.061106
1.022317 0.528863 0.062052
1.065175 0.534420 0.079229
1.094024 0.542591 0.109172
1.112417 0.545243 0.133531
1.123607 0.533010 0.147556
-0.003761 0.369686 0.123502
-0.014246 0.368135 0.105549
0.034890 0.370982 0.103514
0.062534 0.391101 0.100773
0.086997 0.427256 0.081151
0.069043 0.438650 0.055720
0.246661 0.482568 0.038344
0.552287 0.553051 0.057194
0.798236 0.612658 0.087229
0.927921 0.628181 0.103026
1.003203 0.634600 0.116610
1.049381 0.637011 0.131318
1.083151 0.643341 0.160909
1.107394 0.649773 0.197130
1.124109 0.650418 0.222322
1.135069 0.637072 0.233731
-0.003929 0.433734 0.143106
-0.014273 0.431919 0.125337
0.035396 0.434401 0.123242
0.063008 0.450182 0.119143
0.088790 0.494310 0.099025
0.101319 0.514346 0.075554
0.163360 0.532921 0.055292
0.455505 0.608111 0.049198
0.770018 0.689340 0.097966
0.941236 0.721471 0.157604
1.020195 0.731966 0.184958
1.065156 0.738813 0.210102
1.096197 0.742220 0.244947
1.117989 0.744128 0.281873
1.133001 0.741398 0.304240
1.142937 0.726172 0.314546
-0.004240 0.495212 0.155036
-0.014137 0.492747 0.137256
0.035712 0.495390 0.134210
0.063224 0.513335 0.128818
0.088220 0.566153 0.120514
0.105655 0.598420 0.110373
0.157395 0.606791 0.096270
0.406366 0.670925 0.070612
0.742792 0.754300 0.115418
0.941480 0.800223 0.203713
1.031237 0.819170 0.250237
1.077084 0.825985 0.287100
1.104974 0.823459 0.324722
1.122930 0.818453 0.356649
1.135944 0.812136 0.370063
1.145381 0.794822 0.373672
-0.004521 0.562791 0.169637
-0.013889 0.559621 0.151830
0.035896 0.563095 0.148605
0.062707 0.587404 0.146572
0.085835 0.642260 0.154031
0.116769 0.677262 0.162024
0.198548 0.689866 0.159308
0.414140 0.736120 0.144580
0.733015 0.810160 0.178161
0.928331 0.857061 0.272087
1.024143 0.875998 0.323936
1.076771 0.884383 0.359806
1.106997 0.883283 0.391394
1.123733 0.877093 0.418072
1.135983 0.869142 0.428107
1.145314 0.853767 0.430035
-0.004902 0.626903 0.180436
-0.013460 0.622781 0.162776
0.035868 0.627881 0.161637
0.060595 0.658733 0.171358
0.090248 0.705806 0.192472
0.157918 0.728738 0.210370
0.264248 0.747362 0.218615
0.467488 0.790784 0.229568
0.750159 0.852871 0.273638
0.918094 0.893492 0.347591
1.009094 0.907280 0.392620
1.062403 0.912250 0.421783
1.102161 0.915601 0.439880
1.122743 0.911114 0.451317
1.135485 0.903200 0.458372
1.144944 0.890324 0.462153
-0.005353 0.675592 0.191740
-0.012949 0.670797 0.174050
0.035462 0.677360 0.175108
0.058213 0.710928 0.193151
0.108945 0.746629 0.219353
0.191198 0.760117 0.241665
0.320133 0.789401 0.260493
0.522670 0.834121 0.288846
0.771724 0.885549 0.331213
0.917138 0.916071 0.384384
1.004042 0.926209 0.418839
1.054481 0.929890 0.445950
1.091325 0.932172 0.461271
1.118173 0.933013 0.465775
1.136270 0.927624 0.467315
1.144610 0.911560 0.469571
-0.006296 0.732416 0.204755
-0.009951 0.728487 0.190999
0.035838 0.736800 0.193557
0.058941 0.769156 0.213154
0.113575 0.798905 0.239679
0.199650 0.811521 0.264768
0.341830 0.846676 0.294466
0.551711 0.890374 0.333863
0.776611 0.930717 0.370513
0.913472 0.951502 0.413952
1.001407 0.957159 0.443025
1.048759 0.957679 0.468996
1.084836 0.961797 0.486590
1.109011 0.963018 0.491988
1.130318 0.963401 0.492135
1.154462 0.963500 0.494800
-0.007216 -0.275176 -0.063337
0.010875 -0.275530 -0.061680
0.029002 -0.279853 -0.063583
0.040630 -0.289446 -0.070264
0.103044 -0.299897 -0.085788
0.183621 -0.309678 -0.098010
0.256660 -0.323773 -0.105296
0.326544 -0.343216 -0.110990
0.391538 -0.363045 -0.117013
0.461914 -0.377145 -0.121603
0.545246 -0.384312 -0.121990
0.632988 -0.387437 -0.120653
0.714774 -0.388963 -0.120442
0.783666 -0.389521 -0.119704
0.832570 -0.389736 -0.119579
0.860162 -0.390063 -0.120669
-0.006853 0.052957 0.038706
0.007560 0.051407 0.038127
0.031219 0.049363 0.036488
0.047617 0.017615 0.019551
0.116548 -0.064752 -0.020598
0.196661 -0.085882 0.009182
0.277057 -0.096998 0.025182
0.364903 -0.106995 0.034078
0.449816 -0.115885 0.040550
0.532227 -0.119682 0.044184
0.614919 -0.118759 0.045395
0.693868 -0.113660 0.043807
0.766398 -0.106093 0.041358
0.827727 -0.097597 0.039219
0.871456 -0.090816 0.037425
0.907034 0.086106 0.034622
-0.005659 0.031550 0.042908
-0.009538 0.032112 0.043359
0.028366 0.031838 0.043666
0.045361 0.031271 0.039918
0.126364 0.028532 0.031537
0.217277 0.031161 0.023001
0.299649 0.036734 0.018467
0.383205 0.041381 0.016524
0.462260 0.044815 0.015857
0.539039 0.046350 0.015626
0.616452 0.045688 0.015660
0.691684 0.044060 0.015469
0.761426 0.039053 0.013830
0.820024 0.034697 0.012574
0.861458 0.021375 0.006397
0.910217 0.069193 0.037187
-0.004240 0.061157 0.050834
-0.009951 0.061785 0.048354
0.022167 0.062923 0.043153
0.036739 0.068353 0.038843
0.143187 0.071677 0.025822
0.249085 0.073249 0.018008
0.340457 0.076028 0.014503
0.423667 0.078943 0.012786
0.501771 0.080900 0.011843
0.578044 0.082129 0.011381
0.653976 0.084212 0.011470
0.727423 0.089061 0.012238
0.794852 0.095587 0.013601
0.850372 0.101277 0.014736
0.888957 0.103895 0.014525
0.931000 0.111043 0.038170
-0.003387 0.099338 0.062397
-0.007421 0.099770 0.058580
0.007449 0.101277 0.041562
0.027997 0.112397 0.037483
0.133698 0.123727 0.026260
0.278636 0.135151 0.019651
0.382528 0.137287 0.015813
0.469436 0.138351 0.013927
0.551074 0.137025 0.012931
0.630722 0.138121 0.012574
0.705819 0.141297 0.012963
0.776310 0.145573 0.013786
0.839683 0.150979 0.015258
0.889644 0.155900 0.016701
0.923214 0.157718 0.016741
0.955302 0.159203 0.041359
-0.003176 0.141941 0.072561
-0.004521 0.142207 0.068322
-0.016006 0.142030 0.041587
0.036613 0.156728 0.039403
0.094694 0.178605 0.029567
0.274801 0.200198 0.024801
0.422068 0.213557 0.022222
0.513692 0.214158 0.018222
0.597193 0.212582 0.017186
0.675788 0.209302 0.016457
0.751864 0.207996 0.016762
0.820327 0.209205 0.017856
0.878054 0.211836 0.019337
0.923519 0.216571 0.021175
0.955697 0.218453 0.021531
0.982571 0.218627 0.048534
-0.002944 0.190364 0.085113
-0.002010 0.190435 0.080658
-0.019511 0.187555 0.045515
0.046997 0.206043 0.044946
0.038538 0.234152 0.035213
0.246849 0.272265 0.026387
0.445567 0.298095 0.032228
0.571940 0.305960 0.031348
0.657009 0.303133 0.029791
0.733330 0.298269 0.028915
0.803613 0.293211 0.027503
0.868497 0.290435 0.026769
0.927233 0.292156 0.027368
0.975438 0.299955 0.030035
1.010040 0.304556 0.031458
1.035210 0.303833 0.061430
-0.003176 0.245817 0.100766
0.001390 0.245661 0.096471
-0.020189 0.240262 0.056977
0.051538 0.261352 0.057071
0.046822 0.294082 0.046903
0.168279 0.333718 0.031230
0.438562 0.380381 0.042458
0.621479 0.403265 0.055979
0.724338 0.404104 0.053114
0.810051 0.402613 0.048135
0.886528 0.401756 0.043194
0.954358 0.401749 0.039254
1.012306 0.406160 0.039258
1.056342 0.416487 0.045800
1.085704 0.423619 0.053189
1.100881 0.419872 0.094059
-0.003387 0.309142 0.126793
0.001826 0.308712 0.122154
-0.020354 0.301919 0.081168
0.052392 0.322945 0.084388
0.074389 0.356411 0.069059
0.059262 0.380310 0.045788
0.344602 0.436490 0.042623
0.627515 0.492454 0.069909
0.782183 0.512403 0.078083
0.887156 0.523012 0.070194
0.965359 0.525774 0.064907
1.023326 0.526399 0.065702
1.066073 0.531539 0.082995
1.094636 0.539152 0.112283
1.112788 0.540731 0.134273
1.123812 0.533901 0.175750
-0.003581 0.375973 0.152126
0.002248 0.375613 0.147478
-0.020256 0.367926 0.106111
0.052582 0.383948 0.107831
0.082506 0.421737 0.091738
0.061491 0.437019 0.066657
0.216299 0.477387 0.041309
0.539273 0.551020 0.060097
0.796438 0.613499 0.091758
0.928799 0.629001 0.108295
1.004155 0.634237 0.121300
1.050054 0.635981 0.135804
1.083749 0.641768 0.165440
1.107670 0.647948 0.201189
1.124479 0.647893 0.224399
1.135510 0.638639 0.259164
-0.003761 0.442199 0.174327
0.002828 0.441321 0.169261
-0.020039 0.431591 0.125763
0.052801 0.444589 0.126279
0.083651 0.486841 0.109308
0.096878 0.514197 0.085250
0.127218 0.527386 0.061281
0.433924 0.603885 0.050894
0.763822 0.689030 0.100633
0.940574 0.722122 0.162425
1.020816 0.732713 0.190265
1.065574 0.738815 0.215055
1.096636 0.741734 0.249840
1.118243 0.743418 0.286331
1.133319 0.739898 0.307288
1.142947 0.726573 0.334487
-0.004089 0.507540 0.190156
0.003530 0.506069 0.184504
-0.019718 0.492108 0.137695
0.052943 0.506881 0.136281
0.082864 0.556416 0.128004
0.101469 0.598191 0.117983
0.128193 0.602431 0.106139
0.379733 0.665779 0.073641
0.733403 0.752897 0.116400
0.938799 0.800516 0.207951
1.030842 0.819652 0.255093
1.077255 0.826430 0.292287
1.105227 0.823560 0.329713
1.123087 0.818295 0.361186
1.136277 0.811505 0.373275
1.145391 0.795427 0.391875
-0.004521 0.578990 0.205448
0.004314 0.577341 0.200223
-0.019230 0.558730 0.151997
0.052582 0.578597 0.152463
0.080109 0.631879 0.157700
0.109187 0.675466 0.166948
0.178585 0.686527 0.169105
0.387312 0.731142 0.148827
0.722265 0.808165 0.178771
0.924782 0.856833 0.275725
1.023002 0.876090 0.328307
1.076594 0.884411 0.364697
1.107013 0.883311 0.396241
1.123795 0.877010 0.422502
1.136245 0.868849 0.431732
1.145362 0.854307 0.447371
-0.004653 0.648000 0.220914
0.005073 0.645990 0.215546
-0.018613 0.621245 0.162385
0.050956 0.647451 0.172400
0.082023 0.696805 0.192827
0.145336 0.726435 0.213234
0.243918 0.743421 0.223582
0.442923 0.785951 0.231619
0.739994 0.850540 0.274198
0.914368 0.893122 0.350471
1.007663 0.907286 0.396416
1.061928 0.912326 0.426020
1.101827 0.915730 0.444353
1.122786 0.911303 0.455603
1.135537 0.903102 0.461877
1.145092 0.889531 0.478518
-0.004780 0.699672 0.236787
0.003742 0.696944 0.230447
-0.019921 0.667479 0.170809
0.047874 0.697301 0.188114
0.094899 0.738969 0.216072
0.175005 0.757549 0.241256
0.299752 0.785052 0.261220
0.499561 0.829782 0.289063
0.761791 0.883611 0.331334
0.912924 0.915782 0.386446
1.002464 0.926296 0.421550
1.053517 0.929981 0.449191
1.090773 0.932340 0.464937
1.118230 0.933007 0.469613
1.136138 0.927761 0.470523
1.144716 0.910861 0.486165
-0.006380 0.757821 0.251852
0.004519 0.755302 0.245885
0.024851 0.748988 0.226948
0.057215 0.770103 0.237683
0.110754 0.798663 0.261596
0.194118 0.811533 0.283484
0.329873 0.843346 0.307209
0.540330 0.886776 0.344055
0.772314 0.928965 0.381703
0.912547 0.951008 0.425685
0.999829 0.956952 0.455772
1.047107 0.957667 0.481473
1.082592 0.961943 0.497885
1.106452 0.963059 0.499231
1.127675 0.963328 0.498724
1.152473 0.963152 0.512314
-0.007421 -0.284586 -0.063661
0.013362 -0.283752 -0.060072
0.032783 -0.284854 -0.055601
0.042544 -0.291048 -0.067176
0.099189 -0.300141 -0.079999
0.180353 -0.309330 -0.090091
0.256419 -0.322621 -0.095698
0.330716 -0.341813 -0.103719
0.404440 -0.362005 -0.108697
0.487216 -0.376592 -0.112226
0.582207 -0.383955 -0.111611
0.677271 -0.387302 -0.111474
0.759944 -0.388874 -0.112397
0.825589 -0.389600 -0.112170
0.871487 -0.389828 -0.115366
0.896914 -0.390033 -0.122378
-0.006853 0.055893 0.068298
0.004276 0.052249 0.069746
0.033667 0.044273 0.071440
0.048789 -0.027134 0.064521
0.110320 -0.067619 0.056753
0.192479 -0.086613 0.048019
0.275179 -0.099014 0.019751
0.367116 -0.110157 0.037767
0.460809 -0.119257 0.048215
0.553769 -0.123165 0.054049
0.646264 -0.122025 0.056004
0.731891 -0.116868 0.054995
0.805553 -0.109439 0.052902
0.864246 -0.101270 0.050554
0.906029 -0.094515 0.047609
0.938337 0.085093 0.041671
-0.005353 0.038789 0.071104
-0.010672 0.038693 0.075095
0.028531 0.035097 0.076633
0.043826 0.031538 0.076466
0.120860 0.028891 0.072742
0.219004 0.029107 0.065724
0.305481 0.032018 0.060904
0.397212 0.035450 0.058325
0.489752 0.038438 0.057623
0.579838 0.040305 0.057810
0.665979 0.041037 0.058284
0.744398 0.041037 0.058343
0.812250 0.038505 0.053575
0.866782 0.035762 0.050563
0.904381 0.025153 0.047955
0.943656 0.058816 0.065255
-0.004089 0.064824 0.074596
-0.009771 0.065425 0.075333
0.021962 0.066674 0.076916
0.036411 0.067510 0.076511
0.124564 0.060474 0.064956
0.238009 0.051189 0.051242
0.337746 0.045340 0.042871
0.428090 0.036414 0.036413
0.508855 0.028921 0.030232
0.581063 0.021935 0.024820
0.648993 0.013269 0.020442
0.717319 0.015691 0.016667
0.784713 0.029628 0.018348
0.838517 0.037063 0.019499
0.879990 0.047023 0.023108
0.949969 0.094303 0.058699
-0.003387 0.100835 0.086714
-0.007216 0.101326 0.085830
0.008258 0.103425 0.082137
0.032444 0.111291 0.079720
0.109706 0.118299 0.068188
0.264802 0.120713 0.051031
0.381890 0.117266 0.039828
0.473979 0.113636 0.033034
0.557566 0.109953 0.027817
0.634269 0.110668 0.024420
0.705962 0.113907 0.022583
0.774661 0.118172 0.022350
0.835968 0.123374 0.022747
0.882504 0.126917 0.022099
0.917794 0.129422 0.024675
0.966985 0.147215 0.063661
-0.003176 0.144187 0.100096
-0.004653 0.144518 0.098407
-0.008404 0.145734 0.090462
0.028066 0.153633 0.074816
0.043422 0.173996 0.066749
0.255098 0.195300 0.051826
0.424520 0.204296 0.042000
0.518269 0.199712 0.033317
0.602861 0.194809 0.028753
0.682321 0.190416 0.026057
0.757550 0.189336 0.025202
0.824169 0.190637 0.025205
0.880085 0.193763 0.026105
0.923058 0.197144 0.026193
0.953526 0.198130 0.028525
0.990624 0.209202 0.072226
-0.002944 0.194029 0.115042
-0.003176 0.194209 0.112888
-0.005757 0.194729 0.103520
0.019434 0.195815 0.069623
-0.022340 0.226758 0.064959
0.201561 0.267035 0.044232
0.442951 0.298503 0.047367
0.575699 0.300954 0.042928
0.659698 0.293455 0.039330
0.735497 0.285384 0.036551
0.805345 0.278298 0.034093
0.869324 0.274503 0.032889
0.926438 0.276811 0.033659
0.972565 0.283848 0.034982
1.005327 0.286832 0.036492
1.043122 0.298673 0.087681
