Prize Luts/Video/Cinematic - LOG 33.cube
LUT_3D_SIZE 16
0.000000 0.000000 0.000000
-0.013942 -0.000667 -0.000565
-0.036361 -0.001094 -0.000790
0.086962 0.000951 0.002351
0.174630 0.002835 0.003618
0.268580 0.004348 0.006930
0.367427 0.005743 0.009596
0.463407 0.006974 0.016651
0.548369 0.007919 0.025129
0.627103 0.008811 0.031486
0.703273 0.009524 0.036750
0.777417 0.010179 0.040748
0.850853 0.010624 0.044057
0.934816 0.011127 0.049683
0.928704 0.011105 0.049978
0.964218 0.011099 0.049858
-0.001428 -0.012035 -0.001228
-0.013311 -0.011332 -0.001337
-0.033492 -0.011395 -0.001710
0.084242 -0.014764 0.001770
0.170886 -0.019825 0.002942
0.265783 -0.024256 0.006516
0.365846 -0.027272 0.009379
0.464227 -0.028979 0.016473
0.550581 -0.029481 0.024872
0.630740 -0.028857 0.031283
0.708448 -0.027396 0.036695
0.783095 -0.025211 0.040230
0.856353 -0.022503 0.042797
0.938376 -0.019666 0.048053
0.932476 -0.018236 0.048099
0.967524 -0.017727 0.047969
-0.002766 -0.035765 -0.002854
-0.019055 -0.035795 -0.003146
-0.037301 -0.037165 -0.003679
0.039245 -0.020633 0.003170
0.125037 0.036081 0.006954
0.209018 0.048412 0.009405
0.297729 0.054119 0.012830
0.391235 0.054303 0.017343
0.484212 0.051624 0.021699
0.571893 0.044544 0.027885
0.655169 0.034437 0.034494
0.736612 0.015599 0.042325
0.818956 -0.028305 0.051386
0.914626 -0.041691 0.062046
0.908738 -0.040814 0.061816
0.944217 -0.042180 0.061859
0.004244 0.079429 0.004897
-0.027100 0.076184 0.004557
0.056434 0.078428 0.007191
0.086751 0.042124 0.005823
0.148334 0.057970 0.008169
0.227804 0.085194 0.011875
0.310500 0.102325 0.015477
0.397742 0.116642 0.020152
0.484760 0.129589 0.025502
0.565199 0.134304 0.030658
0.640441 0.135217 0.036119
0.713269 0.131756 0.041137
0.785069 0.127318 0.048005
0.871208 0.123321 0.055611
0.865974 0.122236 0.055780
0.899566 0.119828 0.055589
0.005948 0.162250 0.011990
-0.032049 0.158821 0.011442
0.052724 0.151897 0.012460
0.158370 0.165712 0.015739
0.164802 0.105333 0.008769
0.242181 0.115086 0.013423
0.324441 0.139430 0.018673
0.407932 0.155626 0.023652
0.491986 0.168903 0.029057
0.571161 0.179447 0.034771
0.646276 0.188591 0.040546
0.719347 0.196591 0.047050
0.791061 0.204387 0.054160
0.875604 0.205429 0.061355
0.869503 0.204307 0.061317
0.902118 0.201785 0.060919
0.014009 0.246722 0.021688
-0.032503 0.243990 0.021402
0.052110 0.235918 0.021972
0.163398 0.246175 0.024619
0.268890 0.256342 0.029351
0.257280 0.177422 0.017122
0.342860 0.180865 0.022795
0.426510 0.198549 0.028386
0.509401 0.214175 0.034544
0.588026 0.224757 0.040589
0.662987 0.232983 0.046904
0.736087 0.240025 0.053361
0.808820 0.247815 0.059926
0.894514 0.257007 0.067924
0.888428 0.256086 0.067768
0.921234 0.253724 0.067318
0.017425 0.336171 0.037431
-0.032992 0.333912 0.037199
0.060666 0.325551 0.036297
0.164725 0.330610 0.039153
0.281370 0.342219 0.044047
0.364015 0.333163 0.045061
0.355649 0.252381 0.029865
0.445400 0.251734 0.035268
0.528288 0.259744 0.041646
0.606414 0.274380 0.048387
0.681979 0.283210 0.054948
0.756718 0.289831 0.061156
0.831490 0.296077 0.067345
0.919656 0.305498 0.075139
0.913616 0.304494 0.075184
0.946720 0.301502 0.074608
0.028147 0.416831 0.055336
-0.027771 0.416466 0.055305
0.070409 0.417109 0.055577
0.166471 0.419443 0.057244
0.279519 0.426803 0.061174
0.407234 0.442716 0.067648
0.454305 0.404734 0.062274
0.454607 0.329913 0.048371
0.546671 0.326967 0.052820
0.626133 0.322045 0.057049
0.701509 0.334724 0.063364
0.775577 0.343333 0.069621
0.849496 0.350775 0.075672
0.941453 0.359363 0.083552
0.935851 0.357761 0.083270
0.970161 0.354006 0.082648
0.044719 0.498419 0.073015
0.027715 0.498371 0.073042
0.090433 0.503169 0.073615
0.168011 0.505826 0.074823
0.280570 0.511931 0.078081
0.399482 0.521977 0.083172
0.531002 0.538593 0.090555
0.543036 0.474717 0.078840
0.553978 0.405730 0.066556
0.644134 0.399627 0.070459
0.720590 0.383564 0.072305
0.794854 0.393772 0.078406
0.869684 0.402840 0.084487
0.960316 0.414192 0.092189
0.951436 0.411006 0.091603
0.986836 0.407406 0.090943
0.054418 0.577131 0.089978
0.042508 0.576670 0.089888
0.102583 0.581647 0.090460
0.170291 0.583728 0.091308
0.279637 0.589726 0.094194
0.395013 0.599144 0.098506
0.521545 0.614310 0.105050
0.639979 0.626081 0.111358
0.632232 0.543567 0.095256
0.648004 0.477729 0.083992
0.733721 0.468100 0.086731
0.808388 0.446865 0.087506
0.883170 0.450080 0.092237
0.972923 0.463972 0.100306
0.960741 0.459370 0.099091
0.997201 0.455556 0.098463
0.066323 0.646537 0.104647
0.057240 0.646243 0.104594
0.110646 0.653800 0.105563
0.171538 0.655835 0.106117
0.274902 0.663010 0.109094
0.390198 0.674136 0.113695
0.510223 0.687016 0.119084
0.641250 0.703218 0.126400
0.731017 0.698394 0.128470
0.709327 0.601794 0.109280
0.727653 0.539123 0.098787
0.812558 0.528877 0.101307
0.888968 0.508985 0.102180
0.976927 0.504323 0.106695
0.965607 0.502092 0.105900
1.002059 0.498630 0.105306
0.071725 0.714226 0.119364
0.063624 0.713821 0.119227
0.114583 0.722949 0.120232
0.172146 0.726563 0.121151
0.267071 0.734497 0.123635
0.382169 0.745584 0.127881
0.500681 0.758612 0.133429
0.623443 0.771559 0.139412
0.757007 0.790109 0.147268
0.805050 0.753669 0.141934
0.779647 0.654233 0.121985
0.798930 0.593516 0.111806
0.884133 0.585519 0.114925
0.976804 0.568668 0.117087
0.964560 0.561635 0.115408
1.001541 0.554058 0.114133
0.077425 0.780709 0.133725
0.069926 0.780235 0.133633
0.118380 0.791542 0.134979
0.174640 0.796735 0.135859
0.256953 0.804195 0.138127
0.372439 0.815948 0.142370
0.490861 0.829657 0.147589
0.611630 0.842154 0.153123
0.736218 0.854819 0.159490
0.869873 0.876291 0.168262
0.876608 0.805456 0.154502
0.849162 0.705158 0.134481
0.870207 0.647389 0.124872
0.971643 0.639630 0.128700
0.965574 0.637462 0.128196
1.001913 0.629557 0.126822
0.083940 0.852733 0.149119
0.077495 0.852078 0.149053
0.120463 0.867095 0.151278
0.178790 0.872641 0.152190
0.250662 0.880226 0.154179
0.362421 0.893993 0.158458
0.480664 0.908114 0.163600
0.601945 0.921541 0.169118
0.723662 0.933642 0.174743
0.853285 0.948335 0.181439
0.971288 0.961290 0.188309
0.953985 0.867769 0.169140
0.927367 0.768719 0.149231
0.961064 0.709092 0.140181
0.963743 0.713282 0.141587
1.000336 0.704882 0.140022
0.086469 0.894666 0.158390
0.080422 0.894126 0.158259
0.122663 0.910217 0.160668
0.182481 0.915825 0.161473
0.250598 0.923462 0.163333
0.358759 0.938071 0.167746
0.474877 0.954172 0.173019
0.596835 0.968825 0.178703
0.717198 0.976308 0.184454
0.832028 0.976636 0.190601
0.955544 0.986863 0.199924
0.984983 0.938389 0.193463
0.979110 0.855916 0.170542
0.969095 0.759776 0.149737
0.960194 0.755927 0.149186
0.998127 0.756755 0.149299
0.091667 0.944713 0.167279
0.088040 0.944542 0.167179
0.130590 0.960796 0.169655
0.190491 0.966750 0.170536
0.258855 0.974986 0.172542
0.366537 0.989773 0.176970
0.483969 1.005625 0.182530
0.607611 1.021147 0.188482
0.731455 1.030216 0.194423
0.849689 1.031622 0.200750
0.972060 1.038661 0.209229
1.005875 0.995950 0.205470
0.991594 0.909671 0.181206
0.977590 0.815459 0.160317
0.965798 0.796821 0.156880
1.002951 0.798919 0.157283
-0.040520 -0.413964 -0.087327
-0.047615 -0.415732 -0.087631
-0.068628 -0.419686 -0.088328
0.039535 -0.423712 -0.089116
0.151510 -0.427954 -0.090320
0.246596 -0.433872 -0.092257
0.343220 -0.440654 -0.094764
0.434819 -0.446672 -0.096921
0.513430 -0.450482 -0.098317
0.585161 -0.452160 -0.099811
0.659204 -0.448281 -0.099967
0.741493 -0.430630 -0.094861
0.829455 -0.398874 -0.082940
0.925088 -0.367638 -0.066745
0.922769 -0.352389 -0.060466
0.958752 -0.349854 -0.059663
-0.001256 -0.012062 -0.001395
-0.013513 -0.011428 -0.001408
-0.033223 -0.011422 -0.001896
0.089105 -0.014924 0.000693
0.176652 -0.020041 0.002105
0.271307 -0.024391 0.006159
0.370815 -0.027329 0.009056
0.467802 -0.028950 0.016462
0.552989 -0.029407 0.025043
0.632094 -0.028744 0.031468
0.708897 -0.027226 0.036737
0.783083 -0.025026 0.040263
0.856058 -0.022292 0.042804
0.938351 -0.019490 0.048037
0.932476 -0.018153 0.048099
0.967502 -0.017742 0.047966
-0.002108 -0.035939 -0.002900
-0.019012 -0.035678 -0.003401
-0.037617 -0.037276 -0.003656
0.035910 -0.021267 0.003112
0.123591 0.035393 0.006916
0.207946 0.047584 0.009368
0.296898 0.053042 0.012764
0.390883 0.053108 0.017302
0.483987 0.050431 0.021636
0.571874 0.043290 0.027860
0.655320 0.033003 0.034505
0.736861 0.011661 0.042342
0.819172 -0.029311 0.051413
0.915011 -0.042060 0.062074
0.909054 -0.041042 0.061832
0.944190 -0.042047 0.061851
0.004917 0.078927 0.006473
-0.027220 0.078018 0.004156
0.054977 0.077910 0.007143
0.086973 0.042278 0.005842
0.148252 0.057642 0.008166
0.227757 0.084929 0.011854
0.310392 0.102086 0.015460
0.397693 0.116411 0.020130
0.484737 0.129378 0.025493
0.565188 0.134011 0.030640
0.640423 0.134866 0.036093
0.713265 0.131472 0.041125
0.785061 0.127094 0.047983
0.871224 0.123146 0.055608
0.865978 0.122148 0.055775
0.899571 0.119919 0.055590
0.006787 0.161882 0.013285
-0.032312 0.160750 0.011411
0.050329 0.151468 0.012391
0.157859 0.165713 0.015727
0.164937 0.105362 0.008783
0.242123 0.114914 0.013406
0.324432 0.139265 0.018656
0.407835 0.155482 0.023645
0.491944 0.168780 0.029041
0.571122 0.179368 0.034757
0.646279 0.188507 0.040535
0.719227 0.196561 0.047050
0.791017 0.204251 0.054150
0.875594 0.205379 0.061345
0.869476 0.204239 0.061315
0.902142 0.201844 0.060926
0.014091 0.246740 0.022609
-0.033233 0.245489 0.021390
0.049676 0.235666 0.021941
0.162655 0.246113 0.024596
0.268684 0.256354 0.029343
0.257328 0.177427 0.017129
0.342793 0.180799 0.022783
0.426468 0.198518 0.028372
0.509380 0.214088 0.034538
0.587989 0.224647 0.040576
0.662937 0.232895 0.046885
0.736151 0.240012 0.053358
0.808788 0.247792 0.059920
0.894454 0.256961 0.067914
0.888460 0.256071 0.067766
0.921258 0.253740 0.067325
0.017452 0.336381 0.037816
-0.034189 0.334859 0.037241
0.059177 0.325459 0.036272
0.163927 0.330561 0.039135
0.281038 0.342242 0.044021
0.364038 0.333237 0.045085
0.355682 0.252378 0.029866
0.445400 0.251671 0.035255
0.528273 0.259647 0.041620
0.606395 0.274329 0.048388
0.681944 0.283138 0.054940
0.756691 0.289745 0.061148
0.831473 0.296000 0.067343
0.919634 0.305453 0.075153
0.913657 0.304493 0.075188
0.946644 0.301545 0.074609
0.027904 0.417426 0.055384
-0.029860 0.416470 0.055283
0.069433 0.417021 0.055561
0.165749 0.419375 0.057233
0.279087 0.426742 0.061151
0.406993 0.442690 0.067634
0.454342 0.404749 0.062285
0.454618 0.329876 0.048371
0.546696 0.326881 0.052814
0.626114 0.321980 0.057039
0.701527 0.334688 0.063363
0.775570 0.343328 0.069617
0.849490 0.350760 0.075671
0.941419 0.359308 0.083552
0.935945 0.357757 0.083266
0.970178 0.354036 0.082651
0.044454 0.498733 0.073084
0.024002 0.498200 0.072998
0.089772 0.503126 0.073604
0.167347 0.505836 0.074797
0.280219 0.511885 0.078080
0.399353 0.521980 0.083162
0.530863 0.538619 0.090555
0.543054 0.474812 0.078852
0.553983 0.405704 0.066554
0.644147 0.399737 0.070480
0.720683 0.383444 0.072295
0.794829 0.393685 0.078403
0.869700 0.402904 0.084490
0.960282 0.414136 0.092177
0.951423 0.410963 0.091598
0.986844 0.407449 0.090947
0.054356 0.577254 0.089976
0.040205 0.576553 0.089879
0.102001 0.581636 0.090455
0.169820 0.583686 0.091293
0.279333 0.589709 0.094175
0.394754 0.599134 0.098487
0.521499 0.614315 0.105039
0.639964 0.626110 0.111369
0.632239 0.543616 0.095264
0.648005 0.477722 0.083990
0.733712 0.468060 0.086728
0.808390 0.446876 0.087503
0.883160 0.450052 0.092230
0.972915 0.463953 0.100300
0.960770 0.459313 0.099090
0.997202 0.455551 0.098466
0.066490 0.646551 0.104649
0.055917 0.646051 0.104565
0.110180 0.653778 0.105556
0.171174 0.655816 0.106115
0.274617 0.662968 0.109079
0.390021 0.674131 0.113687
0.510032 0.687049 0.119078
0.641015 0.703190 0.126396
0.731034 0.698434 0.128493
0.709320 0.601814 0.109291
0.727653 0.539123 0.098786
0.812557 0.528852 0.101300
0.888966 0.508952 0.102186
0.976925 0.504308 0.106694
0.965604 0.502113 0.105898
1.002058 0.498635 0.105307
0.071841 0.714297 0.119366
0.062613 0.713597 0.119223
0.114231 0.722848 0.120226
0.171934 0.726586 0.121152
0.266797 0.734514 0.123618
0.382063 0.745629 0.127867
0.500523 0.758569 0.133423
0.623380 0.771555 0.139409
0.757142 0.790100 0.147260
0.805054 0.753727 0.141932
0.779652 0.654173 0.121989
0.798929 0.593517 0.111805
0.884136 0.585505 0.114922
0.976805 0.568652 0.117084
0.964561 0.561635 0.115406
1.001541 0.554075 0.114135
0.077504 0.780739 0.133726
0.069253 0.779966 0.133632
0.118114 0.791740 0.134979
0.174448 0.796721 0.135862
0.256726 0.804187 0.138117
0.372385 0.816255 0.142374
0.490774 0.829616 0.147584
0.611597 0.842132 0.153123
0.736227 0.854839 0.159475
0.869811 0.876265 0.168258
0.876629 0.805500 0.154509
0.849165 0.705175 0.134483
0.870206 0.647385 0.124871
0.971638 0.639671 0.128713
0.965573 0.637454 0.128194
1.001914 0.629562 0.126823
0.084000 0.852753 0.149122
0.077038 0.852107 0.149010
0.120264 0.867080 0.151274
0.178685 0.872599 0.152187
0.250598 0.880287 0.154174
0.362332 0.893955 0.158459
0.480588 0.908086 0.163599
0.601902 0.921593 0.169105
0.723810 0.933884 0.174735
0.853274 0.948292 0.181433
0.971258 0.961313 0.188311
0.953995 0.867794 0.169151
0.927370 0.768728 0.149231
0.961064 0.709086 0.140180
0.963744 0.713268 0.141586
1.000336 0.704886 0.140023
0.086493 0.894607 0.158392
0.080156 0.893875 0.158240
0.122546 0.910167 0.160666
0.182473 0.915802 0.161471
0.250510 0.923421 0.163343
0.358636 0.938041 0.167741
0.474902 0.954185 0.173022
0.596743 0.968786 0.178698
0.717103 0.976270 0.184449
0.831988 0.976616 0.190598
0.955495 0.986859 0.199921
0.984989 0.938388 0.193472
0.979110 0.855926 0.170544
0.969097 0.759782 0.149731
0.960194 0.755927 0.149185
0.998127 0.756755 0.149299
0.091666 0.944712 0.167257
0.088209 0.944603 0.167158
0.130915 0.960838 0.169502
0.191259 0.966779 0.170153
0.260077 0.975008 0.171937
0.368064 0.989790 0.176151
0.485514 1.005635 0.181511
0.609043 1.021152 0.187251
0.732678 1.030216 0.193002
0.850594 1.031621 0.199205
0.972769 1.038662 0.207687
1.006855 0.995927 0.203837
0.992865 0.909661 0.179316
0.978793 0.815452 0.158120
0.967040 0.796820 0.154618
1.004169 0.799023 0.155090
-0.040528 -0.413975 -0.086936
-0.047534 -0.415756 -0.087525
-0.068102 -0.419704 -0.086040
-0.038624 -0.423716 -0.078166
0.133257 -0.427957 -0.071006
0.227754 -0.433876 -0.063967
0.322132 -0.440657 -0.057009
0.415385 -0.446674 -0.045897
0.499695 -0.450480 -0.013078
0.575156 -0.452156 0.025894
0.649940 -0.448274 0.034159
0.729849 -0.430619 0.045881
0.816446 -0.398890 0.061472
0.915975 -0.367613 0.072776
0.912923 -0.352372 0.076036
0.948738 -0.349816 0.075194
-0.000774 -0.012066 0.002587
-0.014368 -0.012044 -0.008916
-0.039967 -0.010831 0.022779
0.068941 -0.008054 0.041678
0.156490 -0.006268 0.051317
0.249920 -0.006063 0.059205
0.346936 -0.005138 0.065894
0.444297 -0.002488 0.073128
0.534296 0.005030 0.081080
0.616530 0.007269 0.085999
0.693720 0.008953 0.089506
0.765987 0.010310 0.091034
0.837193 0.011473 0.091749
0.924232 0.012258 0.092983
0.917203 0.012244 0.092891
0.952608 0.012168 0.092045
-0.000837 -0.034966 0.015779
-0.015452 -0.037694 0.018521
-0.038835 -0.040159 -0.007383
0.118441 -0.040707 -0.021271
0.205770 -0.035905 -0.026112
0.295493 -0.038171 -0.028775
0.386098 -0.040957 -0.029666
0.477083 -0.042477 -0.028896
0.564450 -0.042379 -0.022711
0.646112 -0.041326 0.017278
0.723213 -0.039935 0.034390
0.800093 -0.038402 0.047142
0.878173 -0.036645 0.060330
0.963770 -0.035010 0.070802
0.950671 -0.034016 0.072663
0.986908 -0.033596 0.072497
0.003925 0.075222 0.039766
-0.014149 0.073147 0.040478
-0.052196 0.102408 -0.019568
0.099935 0.047900 0.008223
0.187609 0.057246 0.008780
0.279625 0.080533 0.012873
0.372302 0.088189 0.017198
0.464923 0.089996 0.021832
0.554436 0.085964 0.026858
0.637797 0.078577 0.032199
0.716614 0.071331 0.038468
0.793259 0.064601 0.045498
0.872590 0.055500 0.053595
0.967309 0.048466 0.065857
0.962128 0.049140 0.066251
0.999301 0.046432 0.066154
0.006350 0.157107 0.052497
-0.012975 0.156106 0.052427
-0.056509 0.181991 -0.021388
0.132218 0.181588 0.016900
0.182299 0.110611 0.011080
0.276059 0.117253 0.014310
0.368549 0.140987 0.020556
0.460430 0.154297 0.026140
0.549266 0.164459 0.032203
0.631073 0.172590 0.038020
0.707792 0.173494 0.044306
0.782359 0.172770 0.050470
0.856710 0.166958 0.056644
0.947665 0.162136 0.064933
0.941024 0.160555 0.065362
0.977267 0.157532 0.064999
0.008428 0.246421 0.064346
-0.014377 0.245064 0.063398
-0.054077 0.271659 0.011676
0.109593 0.268247 0.026761
0.266626 0.275474 0.032492
0.280162 0.187523 0.018840
0.377895 0.183648 0.023495
0.471088 0.204688 0.031524
0.559781 0.216376 0.037868
0.640919 0.223569 0.044143
0.717391 0.229487 0.050766
0.791963 0.235970 0.057105
0.865574 0.242299 0.063918
0.955488 0.250859 0.072835
0.948334 0.250416 0.072961
0.984332 0.247884 0.072468
0.010328 0.338040 0.071946
-0.016546 0.336449 0.070376
-0.047843 0.366948 0.039023
0.099301 0.360675 0.043731
0.252580 0.367158 0.048206
0.395923 0.375872 0.054713
0.390127 0.271831 0.034978
0.488883 0.259299 0.038238
0.578336 0.271023 0.046192
0.659388 0.280094 0.052701
0.735717 0.284992 0.058837
0.809764 0.289375 0.064909
0.885331 0.294182 0.070710
0.973359 0.303615 0.079823
0.964103 0.303883 0.081043
1.000066 0.300430 0.080003
0.011624 0.432594 0.080888
-0.018881 0.431602 0.078827
-0.041156 0.463338 0.062703
0.101965 0.456264 0.064028
0.241476 0.460476 0.067132
0.399081 0.476715 0.074388
0.502319 0.458542 0.074653
0.501700 0.357726 0.055518
0.598910 0.338940 0.057628
0.681075 0.335804 0.062577
0.757341 0.343416 0.068592
0.831687 0.347555 0.074101
0.909750 0.350714 0.078633
0.978514 0.365541 0.095178
0.964762 0.364399 0.095785
1.001916 0.360652 0.094662
0.012219 0.521481 0.088691
-0.021298 0.521606 0.087270
-0.034210 0.556014 0.084338
0.108855 0.548502 0.083068
0.234933 0.552322 0.085622
0.380976 0.564921 0.091263
0.546620 0.588127 0.100782
0.602551 0.535295 0.092987
0.609019 0.439900 0.075661
0.699938 0.415954 0.076224
0.776934 0.398353 0.077865
0.851927 0.405546 0.083550
0.932600 0.409207 0.087093
0.977293 0.424272 0.109753
0.965829 0.420699 0.108520
1.002876 0.416715 0.107435
0.012543 0.610771 0.099795
-0.024173 0.610411 0.099071
-0.019155 0.635545 0.101985
0.118571 0.629328 0.100428
0.225764 0.632548 0.101938
0.364595 0.644453 0.107025
0.514588 0.661411 0.114201
0.675226 0.682226 0.123489
0.690309 0.600758 0.108426
0.702156 0.511818 0.092632
0.788083 0.486468 0.092918
0.864004 0.456732 0.092499
0.946593 0.464100 0.096027
0.976673 0.475666 0.120348
0.966622 0.472634 0.118876
1.004067 0.468527 0.117966
0.011111 0.691047 0.108052
-0.027944 0.689631 0.108473
0.033442 0.704008 0.117466
0.127277 0.699106 0.115057
0.218075 0.702006 0.116161
0.350714 0.714282 0.120899
0.489129 0.730295 0.127350
0.641417 0.748766 0.135310
0.777245 0.757537 0.141617
0.764960 0.654493 0.121575
0.779950 0.571937 0.107138
0.865420 0.548871 0.107475
0.949343 0.518410 0.104861
0.977009 0.518461 0.126975
0.967524 0.516765 0.125967
1.004798 0.513191 0.125313
0.017128 0.756306 0.125823
-0.029793 0.754970 0.125919
0.052540 0.767834 0.131471
0.137520 0.764656 0.128947
0.215605 0.768003 0.130118
0.338086 0.779705 0.134255
0.470292 0.794822 0.139968
0.608686 0.810890 0.146853
0.762224 0.830461 0.155393
0.857197 0.815537 0.155882
0.829695 0.700531 0.132829
0.847679 0.624543 0.119675
0.941167 0.606710 0.119246
0.978517 0.571480 0.132772
0.968155 0.566727 0.131724
1.005286 0.560527 0.130780
0.022114 0.819708 0.142601
-0.031804 0.818237 0.142484
0.073456 0.828532 0.143918
0.146526 0.828453 0.142621
0.217912 0.831924 0.143616
0.328781 0.843672 0.147488
0.456685 0.859520 0.152871
0.588270 0.875172 0.159222
0.725504 0.889193 0.165725
0.877544 0.910524 0.174930
0.921293 0.859141 0.166349
0.889358 0.743170 0.142924
0.915331 0.674702 0.130191
0.978965 0.647559 0.141580
0.968566 0.643933 0.140942
1.005788 0.636351 0.139804
0.035442 0.888606 0.159414
-0.018821 0.886235 0.158908
0.094718 0.895648 0.158014
0.158508 0.898693 0.157739
0.227958 0.903855 0.158892
0.323070 0.915755 0.162532
0.447146 0.933695 0.168017
0.576135 0.949872 0.174145
0.705857 0.961657 0.180373
0.842373 0.974624 0.187154
0.980875 0.990710 0.197370
0.983739 0.908608 0.179430
0.956718 0.799723 0.155817
0.976002 0.724598 0.147839
0.968657 0.725224 0.150914
1.006089 0.716198 0.149609
0.049951 0.925328 0.167272
0.035328 0.923326 0.166942
0.106529 0.936556 0.166830
0.166519 0.940921 0.166856
0.234750 0.945907 0.168220
0.321399 0.957318 0.171675
0.445252 0.972683 0.177296
0.569537 0.972606 0.183926
0.687815 0.973125 0.190139
0.801452 0.974131 0.195036
0.927790 0.981575 0.201698
0.986684 0.955070 0.205400
0.976807 0.868603 0.179595
0.974325 0.773545 0.157700
0.968592 0.771509 0.156495
1.006067 0.772343 0.156740
0.053324 0.976638 0.176064
0.045391 0.975465 0.175623
0.113263 0.989279 0.175308
0.173133 0.993912 0.174402
0.241409 0.999479 0.174860
0.327830 1.010262 0.177533
0.452847 1.026303 0.182567
0.579976 1.028820 0.188923
0.702679 1.030877 0.195149
0.820908 1.032883 0.200173
0.945880 1.037687 0.206312
1.011705 1.014908 0.211777
0.993933 0.925017 0.184237
0.985152 0.830190 0.161637
0.976891 0.813030 0.157278
1.014051 0.815089 0.157891
-0.024079 -0.427800 -0.079442
-0.036084 -0.429099 -0.075310
-0.060303 -0.432317 -0.068781
0.047721 -0.435425 0.052474
0.146479 -0.438589 0.078173
0.237062 -0.443340 0.095783
0.327930 -0.448143 0.107988
0.419115 -0.450731 0.117330
0.504515 -0.451819 0.126015
0.580405 -0.452679 0.130454
0.650779 -0.450459 0.131383
0.727176 -0.436196 0.132565
0.812081 -0.405876 0.135840
0.911613 -0.374368 0.141204
0.907978 -0.359269 0.142070
0.943735 -0.356876 0.140542
-0.001260 -0.018966 0.037386
-0.012556 -0.017752 0.035896
-0.040548 -0.013363 0.045690
0.074892 -0.005624 0.082887
0.158499 0.003833 0.099893
0.249194 0.005153 0.113686
0.344224 0.006411 0.124242
0.440425 0.007745 0.132839
0.531759 0.009054 0.141032
0.614869 0.010194 0.145765
0.690268 0.011246 0.147631
0.762266 0.012129 0.147981
0.833628 0.012953 0.146843
0.921440 0.013784 0.147491
0.914351 0.013607 0.146601
0.949854 0.013548 0.145060
0.002620 0.024649 0.063003
-0.008646 0.016293 0.061139
-0.053926 -0.046929 0.109806
0.117310 -0.044258 0.095002
0.204003 -0.029484 0.079154
0.291771 -0.018456 0.076841
0.382359 -0.014230 0.077394
0.472826 -0.012207 0.079734
0.560247 -0.010457 0.083215
0.640923 -0.008203 0.087538
0.717793 -0.003926 0.093073
0.793409 0.007063 0.100844
0.871901 -0.009041 0.108664
0.958530 -0.016251 0.122641
0.947654 -0.021139 0.122233
0.984688 -0.022245 0.121016
0.003921 0.079283 0.074935
-0.002149 0.073220 0.074085
-0.052100 0.112148 0.090906
0.083041 0.035899 0.071616
0.245826 -0.071208 -0.038998
0.355224 -0.060206 -0.042419
0.447925 -0.058310 -0.039808
0.538218 -0.057408 -0.037207
0.626466 -0.056405 -0.031125
0.708039 -0.054091 -0.013659
0.785098 -0.051449 0.025855
0.859917 -0.048729 0.039530
0.940398 -0.053178 0.042905
0.985886 -0.032482 0.098725
0.973830 -0.022151 0.101727
1.010793 -0.025308 0.101273
0.006337 0.159156 0.090764
0.006159 0.153423 0.091748
-0.041908 0.196674 0.073150
-0.058903 0.242746 -0.015663
0.195801 0.125625 0.064150
0.348288 0.122723 -0.018912
0.447051 0.126071 0.017986
0.537118 0.126516 0.027954
0.625526 0.123476 0.034093
0.707526 0.112977 0.040038
0.784797 0.101518 0.046882
0.860225 0.091163 0.053822
0.944709 0.069479 0.056098
0.973100 0.126795 0.089604
0.963471 0.131025 0.091200
1.000599 0.128129 0.090444
0.008853 0.246305 0.105596
0.008806 0.239861 0.106987
-0.031659 0.289320 0.078152
-0.092177 0.350851 0.015612
0.241644 0.286465 0.072649
0.303253 0.210424 0.063316
0.454920 0.201950 0.018778
0.549475 0.207698 0.032806
0.635400 0.211107 0.042063
0.716655 0.213288 0.048736
0.792832 0.215471 0.055098
0.867741 0.212356 0.061155
0.949288 0.203983 0.062729
0.972282 0.238065 0.099806
0.963904 0.238495 0.101329
1.001372 0.234220 0.100113
0.011252 0.337317 0.117536
0.011279 0.330302 0.118830
-0.026920 0.390658 0.085007
-0.088548 0.440959 0.053035
0.209928 0.447371 0.057985
0.388969 0.387736 0.091786
0.411904 0.296964 0.074264
0.565970 0.280184 0.041087
0.656826 0.282335 0.050909
0.735437 0.282166 0.058253
0.811600 0.281604 0.064179
0.887323 0.281790 0.069246
0.966872 0.281641 0.071246
