Prize Luts/Video/Cinematic - LOG 01.cube
LUT_3D_SIZE 6
0.002713 0.002440 0.000749
0.193111 0.012398 0.022041
0.700662 0.065660 0.080671
0.919241 0.082376 0.146097
0.944038 0.079478 0.177741
0.968911 0.083932 0.190129
0.034022 0.092961 0.033517
0.174114 0.105788 0.020659
0.690969 0.110502 0.079090
0.922706 0.106351 0.145622
0.947415 0.103035 0.177768
0.972121 0.107473 0.190246
0.199799 0.407938 0.168943
0.219502 0.409928 0.168133
0.614132 0.508346 0.106826
0.973287 0.509124 0.135382
0.989959 0.465590 0.181183
1.000030 0.444668 0.194158
0.455504 0.670727 0.336994
0.468258 0.672441 0.338113
0.475968 0.667564 0.334700
0.831361 0.794675 0.174033
0.996617 0.819772 0.041166
0.999999 0.809597 0.078457
0.514034 0.762504 0.393607
0.524599 0.764697 0.394166
0.535147 0.767020 0.394741
0.603278 0.793768 0.390667
0.964350 0.948914 0.149183
1.000052 0.960410 0.173817
0.523717 0.783143 0.404500
0.533706 0.785108 0.404611
0.543685 0.787353 0.404834
0.559656 0.791554 0.405057
0.912004 0.951139 0.168059
0.998194 0.976972 0.216436
0.006751 0.022650 0.053711
0.173324 0.016309 0.068401
0.697973 0.048142 0.114061
0.916636 0.072398 0.177962
0.940551 0.073979 0.210245
0.964945 0.080480 0.223200
0.013002 0.103354 0.081504
0.128430 0.115179 0.089212
0.696801 0.159865 0.118291
0.923469 0.114561 0.175239
0.945465 0.101959 0.207520
0.969944 0.109380 0.220323
0.185400 0.408490 0.176662
0.206101 0.410120 0.176887
0.613495 0.506058 0.124293
0.973763 0.483842 0.182027
0.991033 0.474995 0.223405
1.000054 0.470884 0.235314
0.445820 0.670547 0.344131
0.459143 0.671584 0.345090
0.466738 0.666571 0.341592
0.834379 0.792153 0.178982
0.997699 0.806783 0.106648
1.000003 0.792076 0.147875
0.509158 0.763065 0.401699
0.520459 0.765378 0.402654
0.530820 0.767819 0.403060
0.620215 0.801338 0.398529
0.967963 0.950035 0.164615
1.000053 0.960001 0.187510
0.519613 0.783634 0.412588
0.530215 0.785913 0.413230
0.539831 0.787983 0.413291
0.557686 0.792482 0.413373
0.918596 0.953869 0.179284
0.999917 0.977655 0.236274
0.007648 0.096827 0.187023
0.064090 0.100950 0.199710
0.642322 0.055635 0.323940
0.871767 0.075740 0.372342
0.898036 0.084072 0.386444
0.925639 0.091988 0.393759
0.007249 0.107617 0.189196
0.043531 0.111105 0.196506
0.623030 0.071804 0.322481
0.879543 0.093339 0.367737
0.904440 0.103976 0.385892
0.931978 0.113808 0.393720
0.049801 0.430624 0.350895
0.056926 0.429169 0.350114
0.520863 0.520512 0.441434
0.963641 0.507879 0.411806
0.981381 0.502342 0.426386
0.997267 0.505191 0.433327
0.371235 0.689582 0.452804
0.384904 0.690539 0.457290
0.382739 0.687168 0.470387
0.834815 0.786401 0.416148
0.998548 0.791344 0.383926
1.000003 0.778261 0.395851
0.504555 0.764068 0.410426
0.515341 0.766754 0.413059
0.522369 0.771027 0.424788
0.605504 0.808837 0.483640
0.968198 0.955912 0.342351
1.000000 0.967174 0.370492
0.515514 0.784507 0.421276
0.526468 0.786576 0.421363
0.533925 0.790028 0.430596
0.540763 0.799436 0.467730
0.914435 0.957082 0.331824
0.999912 0.985893 0.386514
0.010686 0.202704 0.332310
0.054717 0.208233 0.338637
0.558979 0.256938 0.540695
0.809211 0.166776 0.584614
0.829339 0.163652 0.588326
0.850368 0.158392 0.586211
0.011371 0.218251 0.341443
0.043642 0.223508 0.346768
0.549257 0.278594 0.541317
0.813796 0.185902 0.591302
0.834478 0.180387 0.591127
0.856253 0.174586 0.586790
0.051885 0.442214 0.461164
0.058599 0.441728 0.461396
0.297033 0.481554 0.525508
0.868729 0.413543 0.645014
0.889369 0.394726 0.641034
0.908641 0.385947 0.638395
0.271388 0.686727 0.592569
0.276827 0.685352 0.591829
0.277099 0.680376 0.589911
0.768665 0.759127 0.676856
0.966530 0.770360 0.678760
0.988391 0.772813 0.680295
0.402507 0.792116 0.634843
0.411887 0.793325 0.636413
0.419839 0.794241 0.638784
0.501395 0.809298 0.653115
0.951598 0.928815 0.658170
1.000011 0.943122 0.651000
0.428302 0.808275 0.629784
0.438482 0.809467 0.631205
0.446588 0.810796 0.634428
0.454620 0.812706 0.641959
0.895730 0.938369 0.648622
0.998623 0.984374 0.621874
0.019423 0.267659 0.419957
0.061261 0.273137 0.425866
0.442145 0.342668 0.562953
0.798663 0.244336 0.682372
0.819231 0.222417 0.678575
0.838044 0.203232 0.672800
0.021250 0.282593 0.429006
0.053232 0.287943 0.434233
0.434999 0.358052 0.564985
0.801795 0.261393 0.687236
0.822392 0.239060 0.683735
0.841424 0.219517 0.678311
0.059052 0.430258 0.512893
0.066171 0.431009 0.514442
0.207364 0.436051 0.540067
0.815153 0.348451 0.707751
0.828258 0.269446 0.692857
0.850304 0.261749 0.691884
0.258207 0.690598 0.645296
0.263869 0.689744 0.645210
0.267211 0.687228 0.645865
0.674815 0.743823 0.735466
0.905252 0.731823 0.780603
0.931493 0.728743 0.785131
0.374714 0.817785 0.719624
0.380984 0.817184 0.719367
0.386069 0.816395 0.720634
0.424526 0.816489 0.725316
0.906004 0.891874 0.803101
0.975637 0.906219 0.815358
0.395633 0.843571 0.731510
0.402912 0.844390 0.732402
0.409457 0.845829 0.734322
0.415600 0.848561 0.739010
0.857703 0.924618 0.799675
0.982589 0.961341 0.820672
0.022780 0.284903 0.444059
0.062687 0.289926 0.449416
0.392165 0.351787 0.558296
0.795087 0.264851 0.703541
0.816133 0.239872 0.700092
0.835682 0.214644 0.694365
0.024663 0.299964 0.453352
0.056573 0.304797 0.457968
0.390320 0.367114 0.562553
0.797962 0.281104 0.707950
0.819133 0.255783 0.704855
0.838810 0.230047 0.699318
0.052083 0.399634 0.514997
0.060025 0.406526 0.520081
0.190573 0.419032 0.542516
0.802282 0.325512 0.717590
0.823734 0.280176 0.711896
0.843206 0.252302 0.706441
0.252616 0.689375 0.665767
0.259028 0.689093 0.666103
0.264782 0.688657 0.668051
0.641826 0.739363 0.749213
0.891646 0.725217 0.797083
0.919268 0.714453 0.802091
0.368728 0.823169 0.740422
0.374783 0.822257 0.740202
0.380638 0.822213 0.741543
0.418165 0.822149 0.746187
0.887498 0.886288 0.833585
0.958714 0.892058 0.848973
0.392604 0.857539 0.757979
0.399812 0.858123 0.758712
0.406487 0.859483 0.760803
0.412831 0.862423 0.765912
0.841610 0.926025 0.835005
0.972019 0.953879 0.865447
