Prize Luts/Video/Cinematic - LOG 01.cube
LUT_3D_SIZE 16
0.002713 0.002440 0.000749
0.015862 0.003178 0.002436
0.071705 0.006321 0.011419
0.193111 0.012398 0.022041
0.375824 0.026575 0.034689
0.554311 0.046231 0.056214
0.700662 0.065660 0.080671
0.830538 0.082375 0.106468
0.910891 0.087479 0.130497
0.919241 0.082376 0.146097
0.927357 0.079898 0.159044
0.935504 0.079158 0.169665
0.944038 0.079478 0.177741
0.952396 0.080510 0.183488
0.960761 0.082092 0.187520
0.968911 0.083932 0.190129
0.005927 0.010356 0.003432
0.017344 0.010673 0.004033
0.070099 0.010866 0.011628
0.189632 0.017502 0.022339
0.370613 0.031907 0.034706
0.550358 0.052088 0.056118
0.697598 0.072192 0.080455
0.827929 0.089484 0.106212
0.912137 0.095490 0.130390
0.920314 0.090093 0.146703
0.928569 0.087622 0.159642
0.936691 0.086830 0.170322
0.945115 0.087191 0.178437
0.953321 0.088321 0.184179
0.961895 0.089882 0.188231
0.969957 0.091702 0.190862
0.016237 0.037443 0.013270
0.023023 0.037432 0.012954
0.067850 0.039288 0.013248
0.195147 0.043026 0.023655
0.368612 0.045666 0.035181
0.545683 0.058035 0.055517
0.693719 0.078718 0.079854
0.824779 0.096553 0.105607
0.913404 0.103490 0.130146
0.921514 0.097871 0.146951
0.929643 0.095388 0.159984
0.938005 0.094593 0.170665
0.946342 0.094901 0.178811
0.954507 0.096069 0.184588
0.962926 0.097721 0.188620
0.971008 0.099480 0.191267
0.034022 0.092961 0.033517
0.041149 0.092429 0.032529
0.048197 0.091839 0.031531
0.174114 0.105788 0.020659
0.380170 0.137459 0.037011
0.551775 0.132710 0.058281
0.690969 0.110502 0.079090
0.820631 0.110109 0.103668
0.914231 0.112224 0.128490
0.922706 0.106351 0.145622
0.931002 0.103679 0.158810
0.939283 0.102685 0.169480
0.947415 0.103035 0.177768
0.955804 0.104147 0.183628
0.964152 0.105713 0.187613
0.972121 0.107473 0.190246
0.060613 0.180781 0.066137
0.067957 0.180922 0.065165
0.075314 0.181019 0.064155
0.082272 0.179877 0.062660
0.337058 0.223550 0.029156
0.541700 0.273521 0.049108
0.691187 0.274411 0.081447
0.820819 0.260570 0.106724
0.923781 0.227847 0.129121
0.930969 0.161599 0.143813
0.936097 0.138027 0.156088
0.942598 0.125175 0.166256
0.949524 0.115477 0.174097
0.957248 0.113090 0.179990
0.965582 0.114585 0.184132
0.973830 0.116139 0.186888
0.117535 0.297645 0.115075
0.124481 0.298174 0.114426
0.131401 0.298697 0.113777
0.138002 0.298529 0.112776
0.142599 0.294257 0.109877
0.492254 0.375270 0.062086
0.656340 0.414101 0.048625
0.797929 0.410074 0.093758
0.927741 0.397072 0.125760
0.960225 0.370428 0.149725
0.964732 0.343896 0.164214
0.969991 0.319980 0.174584
0.974967 0.296633 0.181307
0.979924 0.276196 0.185563
0.986073 0.266277 0.188863
0.992294 0.253730 0.190514
0.199799 0.407938 0.168943
0.206461 0.408732 0.168794
0.213125 0.409510 0.168573
0.219502 0.409928 0.168133
0.223603 0.407488 0.166141
0.306405 0.419578 0.160397
0.614132 0.508346 0.106826
0.748328 0.532445 0.053861
0.894256 0.526519 0.094980
0.973287 0.509124 0.135382
0.979515 0.491155 0.157223
0.985043 0.476985 0.171531
0.989959 0.465590 0.181183
0.993426 0.457851 0.187806
0.996680 0.451881 0.191840
1.000030 0.444668 0.194158
0.293731 0.507017 0.224318
0.299830 0.507764 0.224614
0.306048 0.508623 0.224869
0.312143 0.509172 0.224950
0.316034 0.507691 0.223750
0.318138 0.504259 0.221167
0.467590 0.540142 0.224123
0.699943 0.616273 0.151404
0.833084 0.636490 0.061914
0.965542 0.631085 0.086289
0.985504 0.616117 0.128648
0.991522 0.604383 0.148941
0.996321 0.595039 0.162480
0.997811 0.588657 0.171375
0.999024 0.583741 0.177203
1.000021 0.577193 0.180918
0.384272 0.594572 0.282183
0.389331 0.595161 0.282629
0.394535 0.595862 0.283085
0.399822 0.596512 0.283564
0.403277 0.595388 0.282775
0.405663 0.593030 0.281006
0.410347 0.590315 0.278865
0.594864 0.646913 0.286602
0.767583 0.708787 0.178416
0.915421 0.732793 0.056797
0.986103 0.730101 0.058992
0.993298 0.721229 0.097542
0.997991 0.714033 0.119795
0.999098 0.709306 0.132169
0.999829 0.705732 0.139688
1.000000 0.699703 0.145372
0.455504 0.670727 0.336994
0.459604 0.671319 0.337370
0.463965 0.671899 0.337753
0.468258 0.672441 0.338113
0.471328 0.671684 0.337561
0.473987 0.670073 0.336487
0.475968 0.667564 0.334700
0.487131 0.667647 0.334243
0.681473 0.738724 0.326976
0.831361 0.794675 0.174033
0.960822 0.823482 0.062330
0.992035 0.824257 0.042452
0.996617 0.819772 0.041166
0.998106 0.816956 0.060229
0.999758 0.814455 0.069710
0.999999 0.809597 0.078457
0.496394 0.729330 0.374999
0.499978 0.729829 0.375164
0.503628 0.730475 0.375348
0.507339 0.730992 0.375523
0.510475 0.730487 0.375171
0.513360 0.729514 0.374432
0.515994 0.728047 0.373426
0.518141 0.725855 0.372016
0.554304 0.735838 0.372830
0.755023 0.819317 0.304214
0.889863 0.869959 0.147610
0.979968 0.893864 0.084231
0.994636 0.894886 0.074890
0.997169 0.893660 0.070929
0.999109 0.892856 0.066404
1.000023 0.890414 0.060237
0.510437 0.755051 0.389628
0.513909 0.755969 0.389853
0.517389 0.756648 0.390012
0.521030 0.757361 0.390282
0.524649 0.758127 0.390493
0.528247 0.759068 0.390612
0.531849 0.759738 0.390864
0.535313 0.760478 0.390956
0.538368 0.760063 0.390599
0.676063 0.817290 0.371090
0.824024 0.886275 0.236945
0.935537 0.926043 0.139404
0.987864 0.940050 0.134580
0.994882 0.941053 0.135206
0.998055 0.941090 0.133154
1.000005 0.940072 0.127827
0.514034 0.762504 0.393607
0.517545 0.763139 0.393763
0.521017 0.763995 0.393983
0.524599 0.764697 0.394166
0.528058 0.765419 0.394328
0.531653 0.766220 0.394463
0.535147 0.767020 0.394741
0.538662 0.767873 0.394790
0.542223 0.768795 0.394981
0.603278 0.793768 0.390667
0.780017 0.878613 0.292630
0.892850 0.925068 0.171752
0.964350 0.948914 0.149183
0.992530 0.957432 0.166954
0.997280 0.959447 0.171490
1.000052 0.960410 0.173817
0.517422 0.769499 0.397424
0.520826 0.770262 0.397406
0.524233 0.770889 0.397595
0.527707 0.771741 0.397733
0.531102 0.772389 0.397878
0.534579 0.773135 0.397966
0.538098 0.773997 0.398102
0.541518 0.774849 0.398234
0.544994 0.775571 0.398372
0.574607 0.786185 0.398581
0.750642 0.870967 0.325695
0.864346 0.920968 0.199456
0.944849 0.949380 0.152724
0.981568 0.960030 0.169265
0.996901 0.964898 0.186800
1.000040 0.966501 0.189803
0.520644 0.776465 0.401015
0.524015 0.777307 0.401081
0.527397 0.777860 0.401163
0.530837 0.778614 0.401222
0.534165 0.779306 0.401329
0.537567 0.780113 0.401381
0.540989 0.780818 0.401539
0.544429 0.781719 0.401661
0.547771 0.782519 0.401728
0.566352 0.788282 0.402006
0.726317 0.864931 0.349973
0.843433 0.919322 0.222898
0.927884 0.950489 0.160258
0.970947 0.963318 0.170211
0.991988 0.969432 0.193368
0.999940 0.971982 0.205155
0.523717 0.783143 0.404500
0.527038 0.783687 0.404557
0.530399 0.784471 0.404645
0.533706 0.785108 0.404611
0.537038 0.785887 0.404688
0.540346 0.786635 0.404757
0.543685 0.787353 0.404834
0.547031 0.788013 0.404822
0.550378 0.788922 0.404918
0.559656 0.791554 0.405057
0.700300 0.856380 0.370938
0.822869 0.917066 0.247036
0.912004 0.951139 0.168059
0.962465 0.966870 0.171090
0.985860 0.973475 0.195043
0.998194 0.976972 0.216436
0.003104 0.004014 0.005718
0.015564 0.004533 0.006628
0.070416 0.006749 0.014408
0.191649 0.012025 0.024958
0.374735 0.025466 0.037825
0.553586 0.044020 0.060073
0.699960 0.062692 0.085029
0.829719 0.078994 0.111214
0.910678 0.084652 0.136030
0.918891 0.080085 0.152258
0.926867 0.077952 0.165545
0.935060 0.077495 0.176421
0.943343 0.077848 0.184525
0.951523 0.079318 0.190699
0.959924 0.081091 0.194911
0.968061 0.082940 0.197493
0.005454 0.011390 0.008154
0.016013 0.011876 0.008755
0.068120 0.011956 0.014898
0.186107 0.017297 0.025250
0.365700 0.030760 0.037529
0.544838 0.049855 0.059173
0.691956 0.069240 0.083807
0.822309 0.086288 0.109751
0.911838 0.093863 0.134993
0.920070 0.088853 0.152005
0.928062 0.086699 0.165280
0.936330 0.086194 0.176239
0.944669 0.086601 0.184378
0.953046 0.088098 0.190499
0.961400 0.089927 0.194526
0.969399 0.091769 0.197090
0.015362 0.038224 0.016086
0.021998 0.038276 0.016043
0.066375 0.040032 0.016593
0.195542 0.047468 0.027765
0.366476 0.047507 0.038557
0.542611 0.056019 0.058560
0.691204 0.076249 0.083111
0.822485 0.093921 0.109057
0.913059 0.101763 0.134199
0.921207 0.096463 0.151389
0.929423 0.094237 0.164586
0.937473 0.093725 0.175505
0.945920 0.094071 0.183626
0.954197 0.095506 0.189394
0.962436 0.097478 0.193073
0.970730 0.099287 0.195422
0.032258 0.093748 0.036536
0.039247 0.093270 0.035761
0.046017 0.092783 0.034836
0.172664 0.105950 0.024690
0.379778 0.131820 0.041997
0.551792 0.138048 0.063468
0.692766 0.137512 0.085423
0.818362 0.123190 0.108117
0.913435 0.114633 0.132359
0.922539 0.104969 0.149503
0.930691 0.102490 0.162589
0.939008 0.101899 0.173375
0.947230 0.102281 0.181492
0.955587 0.103503 0.187341
0.963894 0.105331 0.191250
0.971980 0.107224 0.193777
0.058119 0.181947 0.069273
0.065511 0.182085 0.068665
0.072535 0.182120 0.067715
0.079373 0.180900 0.066215
0.337000 0.223285 0.032777
0.542531 0.261300 0.056359
0.691635 0.256387 0.087922
0.820590 0.262916 0.112910
0.926285 0.255830 0.135923
0.940338 0.223392 0.153587
0.943573 0.188686 0.164893
0.945246 0.142964 0.171951
0.951029 0.127500 0.179314
0.958726 0.124745 0.185122
0.966674 0.123351 0.189049
0.974359 0.122184 0.191633
0.114017 0.298704 0.118047
0.121087 0.298961 0.117779
0.127688 0.299440 0.117188
0.134179 0.299115 0.116156
0.138788 0.294901 0.113480
0.492430 0.373491 0.064378
0.657731 0.403550 0.054084
0.801490 0.387018 0.103620
0.927774 0.369442 0.134359
0.958427 0.354142 0.157292
0.965585 0.346997 0.172059
0.972784 0.341332 0.183030
0.979420 0.335084 0.190912
0.985722 0.330184 0.196534
0.992348 0.325655 0.200053
0.998585 0.319548 0.201945
0.195411 0.408554 0.171812
0.202220 0.409090 0.171930
0.208600 0.409841 0.171708
0.214808 0.409999 0.171251
0.219060 0.407578 0.169375
0.310834 0.421480 0.163919
0.615002 0.506050 0.106912
0.750997 0.522966 0.063354
0.899043 0.505944 0.107823
0.971384 0.476105 0.147881
0.976543 0.452860 0.169058
0.982511 0.438117 0.182455
0.987864 0.429048 0.191642
0.991912 0.424794 0.197574
0.995946 0.422717 0.201205
1.000020 0.419868 0.203373
0.289377 0.507416 0.227245
0.295357 0.507683 0.227544
0.301289 0.508446 0.227792
0.307187 0.508937 0.227787
0.311318 0.507436 0.226627
0.313379 0.503946 0.224075
0.474697 0.542441 0.227357
0.701339 0.613843 0.149697
0.836468 0.627389 0.065562
0.967621 0.612171 0.104117
0.984964 0.587165 0.145311
0.991009 0.568990 0.165617
0.995348 0.555548 0.179351
0.996806 0.546926 0.187721
0.998753 0.540741 0.193169
1.000015 0.533731 0.196387
0.380428 0.594773 0.284882
0.385253 0.594791 0.285199
0.390261 0.595418 0.285654
0.395374 0.595976 0.285971
0.398980 0.594767 0.285129
0.401243 0.592358 0.283340
0.406577 0.589701 0.281260
0.599676 0.648228 0.287647
0.769892 0.706273 0.175432
0.919239 0.724074 0.057120
0.986463 0.714160 0.075429
0.993496 0.700658 0.117808
0.998146 0.689485 0.138889
0.999147 0.681753 0.151537
0.999889 0.675710 0.159525
1.000001 0.668042 0.165479
0.452543 0.670864 0.339466
0.456493 0.670677 0.339566
0.460557 0.671351 0.339992
0.464849 0.671750 0.340276
0.468023 0.670932 0.339700
0.470589 0.669245 0.338606
0.472486 0.666764 0.336800
0.485451 0.667385 0.336553
0.688632 0.741157 0.326529
0.835244 0.792711 0.171082
0.963919 0.816241 0.063055
0.992303 0.812876 0.044566
0.997121 0.806012 0.061746
0.998722 0.801494 0.075761
0.999902 0.797506 0.084252
1.000001 0.791418 0.099711
0.494317 0.729437 0.377484
0.497790 0.729263 0.377479
0.501212 0.729862 0.377645
0.504894 0.730278 0.377858
0.508076 0.729873 0.377390
0.510907 0.728750 0.376604
0.513557 0.727252 0.375753
0.515794 0.724986 0.374243
0.563694 0.738948 0.375912
0.760758 0.820695 0.300694
0.894664 0.867879 0.145633
0.981967 0.888032 0.084299
0.995073 0.887324 0.073973
0.997434 0.884935 0.068782
0.999207 0.883168 0.063561
1.000025 0.879846 0.057693
0.508681 0.755436 0.392273
0.512593 0.756159 0.392846
0.515937 0.756890 0.392944
0.519506 0.757643 0.393197
0.523073 0.758494 0.393312
0.526630 0.759161 0.393499
0.530254 0.760007 0.393745
0.533620 0.760206 0.393581
0.538637 0.760437 0.393316
0.686143 0.822079 0.370417
0.831029 0.888700 0.232396
0.940232 0.924353 0.139071
0.989880 0.935664 0.132105
0.995373 0.935507 0.130169
0.998049 0.935268 0.126335
1.000005 0.933875 0.120711
0.512515 0.762656 0.396336
0.516275 0.763465 0.396767
0.519670 0.764210 0.396853
0.522993 0.764891 0.397125
0.526537 0.765684 0.397236
0.530116 0.766443 0.397398
0.533660 0.767322 0.397645
0.537231 0.768005 0.397733
0.540771 0.768912 0.397876
0.620618 0.800543 0.392766
0.786930 0.881944 0.288303
0.900561 0.928196 0.170280
0.968356 0.950052 0.155696
0.993019 0.957306 0.172058
0.997302 0.959047 0.175866
1.000053 0.959730 0.177160
0.516066 0.769761 0.400062
0.519560 0.770496 0.400419
0.522924 0.771112 0.400537
0.526382 0.771790 0.400754
0.529763 0.772627 0.400722
0.533199 0.773329 0.400920
0.536726 0.774274 0.401097
0.540127 0.775010 0.401152
0.543653 0.775718 0.401195
0.575976 0.787388 0.401337
0.758095 0.874992 0.321659
0.872910 0.924575 0.195953
0.950779 0.951162 0.159752
0.985174 0.961171 0.176843
0.997541 0.965165 0.192585
1.000047 0.966442 0.195243
0.519337 0.776726 0.403740
0.522958 0.777442 0.404089
0.526031 0.778172 0.404131
0.529423 0.778767 0.404258
0.532836 0.779554 0.404306
0.536153 0.780183 0.404361
0.539641 0.781043 0.404493
0.543039 0.781829 0.404600
0.546411 0.782725 0.404685
0.566850 0.789044 0.404840
0.734016 0.869094 0.346420
0.851638 0.922786 0.218147
0.935000 0.952893 0.163344
0.975590 0.964608 0.180079
0.995078 0.970316 0.204246
1.000021 0.972081 0.210726
0.522326 0.783249 0.407194
0.525956 0.784123 0.407488
0.529097 0.784718 0.407566
0.532283 0.785374 0.407650
0.535678 0.786132 0.407667
0.538967 0.786726 0.407718
0.542298 0.787632 0.407789
0.545662 0.788225 0.407766
0.549060 0.788997 0.407837
0.559245 0.791973 0.407985
0.708987 0.861492 0.368518
0.831013 0.920542 0.242383
0.919870 0.954157 0.170515
0.968069 0.968551 0.181415
0.989525 0.974267 0.206485
0.999928 0.977474 0.226004
0.004666 0.010564 0.023587
0.013783 0.010134 0.024172
0.066159 0.009805 0.028931
0.188532 0.011560 0.035096
0.373546 0.022689 0.045967
0.552831 0.040456 0.067304
0.699315 0.058453 0.091948
0.829062 0.074596 0.118260
0.910071 0.081226 0.143621
0.918260 0.077264 0.160177
0.926040 0.075798 0.173926
0.934117 0.075447 0.184847
0.942410 0.076371 0.193402
0.950677 0.077952 0.199546
0.959064 0.079841 0.203683
0.967153 0.081749 0.206233
0.005246 0.014156 0.024016
0.013652 0.014120 0.024462
0.063147 0.014301 0.028696
0.177844 0.016730 0.034341
0.356719 0.028059 0.043319
0.533736 0.046072 0.062715
0.678186 0.064406 0.086292
0.806119 0.081028 0.111694
0.905430 0.090986 0.137565
0.919779 0.087668 0.155183
0.927911 0.085847 0.168523
0.936112 0.085422 0.179361
0.944324 0.086002 0.187576
0.952549 0.087669 0.193819
0.960896 0.089448 0.197969
0.969040 0.091301 0.200571
0.011210 0.041351 0.032711
0.017079 0.041382 0.032719
0.057149 0.042462 0.034468
0.189228 0.048745 0.039276
0.365344 0.049968 0.046792
0.542384 0.062095 0.066238
0.688083 0.072315 0.089471
0.819801 0.089742 0.115636
0.911117 0.098538 0.141650
0.920707 0.094186 0.159611
0.928606 0.092649 0.173482
0.936833 0.092287 0.184594
0.945015 0.093103 0.193210
0.953287 0.094895 0.199314
0.961783 0.097080 0.202657
0.969812 0.099006 0.204861
0.028326 0.095329 0.043662
0.035064 0.095026 0.043060
0.041000 0.095121 0.043505
0.164575 0.109305 0.040694
0.379302 0.136532 0.054458
0.554454 0.150841 0.074159
0.695435 0.150823 0.094992
0.820669 0.136846 0.116729
0.915647 0.130828 0.140990
0.923351 0.111964 0.157855
0.931361 0.108622 0.171391
0.939059 0.105888 0.182242
0.946517 0.101468 0.190228
0.954757 0.102673 0.196266
0.963218 0.104733 0.199619
0.971326 0.106701 0.201806
0.055568 0.182637 0.072213
0.063046 0.182794 0.071549
0.070092 0.182984 0.070934
0.076711 0.181745 0.069477
0.334614 0.224548 0.039976
0.543411 0.260946 0.070259
0.691641 0.265953 0.097981
0.820435 0.278022 0.122008
0.927776 0.268246 0.145310
0.942162 0.232820 0.163640
0.945492 0.201116 0.175200
0.947663 0.161347 0.182783
0.952424 0.140036 0.189222
0.959979 0.136104 0.195072
0.967459 0.134157 0.199053
0.975127 0.132295 0.201511
0.110339 0.299397 0.120877
0.117598 0.299701 0.120550
0.124535 0.300385 0.120441
0.130780 0.299989 0.119447
0.135347 0.295705 0.116797
0.491417 0.373619 0.068354
0.658637 0.403020 0.072819
0.801634 0.387465 0.114290
0.928288 0.377064 0.143553
0.961561 0.373361 0.166853
0.968396 0.367572 0.182268
0.974652 0.358620 0.193625
0.980630 0.349598 0.202050
0.986240 0.343089 0.207596
0.992832 0.337838 0.211113
0.999001 0.331302 0.212994
0.190976 0.409145 0.174539
0.198019 0.409597 0.174582
0.204931 0.410564 0.174889
0.210897 0.410813 0.174431
0.215121 0.408225 0.172560
0.309976 0.422837 0.167741
0.614375 0.506111 0.110528
0.750929 0.522849 0.074006
0.899393 0.505213 0.119378
0.971945 0.477865 0.158094
0.977581 0.457796 0.179407
0.983324 0.447589 0.193000
0.989053 0.443586 0.201980
0.992789 0.442952 0.208121
0.996687 0.442563 0.211954
1.000033 0.440733 0.214046
0.284866 0.507718 0.230075
0.291150 0.507939 0.230267
0.297634 0.508942 0.230908
0.303335 0.509391 0.230906
0.307312 0.507809 0.229730
0.309589 0.504362 0.227316
0.473364 0.543002 0.230817
0.700935 0.613778 0.153162
0.836101 0.627401 0.074783
0.967992 0.611628 0.116680
0.985674 0.586776 0.156692
0.991167 0.569648 0.177103
0.995508 0.557332 0.190545
0.996903 0.549427 0.199081
0.998727 0.544077 0.204242
1.000016 0.537531 0.207505
0.376377 0.594918 0.287526
0.381549 0.594969 0.287732
0.387060 0.595718 0.288505
0.391891 0.596130 0.288793
0.395397 0.594940 0.287953
0.397839 0.592509 0.286178
0.404099 0.590171 0.284333
0.599232 0.648463 0.290702
0.769551 0.706323 0.179048
0.919139 0.724099 0.066211
0.986904 0.714478 0.091162
0.993779 0.700621 0.130049
0.998535 0.689349 0.150725
0.999529 0.681731 0.163238
1.000020 0.675918 0.171377
1.000003 0.668259 0.177561
0.449398 0.670915 0.341896
0.453577 0.670873 0.341892
0.458083 0.671584 0.342625
0.462167 0.671904 0.342891
0.465210 0.670999 0.342270
0.467960 0.669485 0.341166
0.469769 0.666919 0.339359
0.483782 0.667728 0.339448
0.688250 0.741216 0.329567
0.834856 0.792605 0.175162
0.963727 0.816427 0.068267
0.992382 0.813241 0.053417
0.997413 0.806703 0.071915
0.998800 0.802149 0.086907
0.999658 0.798161 0.097566
0.999999 0.792051 0.112882
0.492266 0.729455 0.380004
0.495929 0.729368 0.379865
0.499612 0.729916 0.380228
0.503192 0.730489 0.380507
0.506251 0.729885 0.379980
0.509037 0.728962 0.379298
0.511612 0.727432 0.378373
0.513788 0.725042 0.376848
0.562757 0.739315 0.378673
0.760524 0.820826 0.304036
0.894237 0.867763 0.150098
0.981881 0.888370 0.089422
0.995083 0.887513 0.079153
0.997460 0.885342 0.074010
0.999191 0.883633 0.069048
1.000023 0.880330 0.063243
0.507070 0.755562 0.394999
0.511022 0.756404 0.395266
0.514685 0.757208 0.395740
0.518187 0.757984 0.395930
0.521628 0.758536 0.396131
0.525160 0.759451 0.396242
0.528765 0.760237 0.396466
0.532092 0.760435 0.396324
0.537233 0.760488 0.396120
0.685578 0.821934 0.373510
0.830721 0.888549 0.236383
0.939855 0.924326 0.143795
0.989742 0.935974 0.137258
0.995367 0.935958 0.135546
0.998035 0.935588 0.131785
1.000005 0.934079 0.126233
0.510901 0.762916 0.399054
0.514838 0.763628 0.399308
0.518427 0.764414 0.399743
0.521706 0.765221 0.399830
0.525146 0.766016 0.400027
0.528683 0.766653 0.400159
0.532183 0.767427 0.400313
0.535693 0.768365 0.400507
0.539335 0.769150 0.400648
0.620232 0.800801 0.395671
0.786470 0.881765 0.292242
0.899797 0.928052 0.174941
0.968304 0.950078 0.160274
0.992920 0.957460 0.177040
0.997295 0.958951 0.181107
1.000053 0.959756 0.182343
0.514443 0.769796 0.402768
0.518136 0.770725 0.402947
0.521811 0.771483 0.403361
0.524999 0.772224 0.403421
0.528360 0.772824 0.403512
0.531816 0.773620 0.403653
0.535288 0.774292 0.403816
0.538695 0.775249 0.403926
0.542221 0.776050 0.403975
0.575790 0.787830 0.404181
0.757413 0.874684 0.325639
0.872352 0.924419 0.200422
0.950347 0.951148 0.164256
0.984783 0.961072 0.181661
0.997541 0.965356 0.197779
1.000047 0.966473 0.200496
0.517851 0.776900 0.406470
0.521606 0.777645 0.406563
0.525053 0.778374 0.406976
0.528291 0.779103 0.407062
0.531566 0.779726 0.407108
0.534916 0.780544 0.407122
0.538344 0.781231 0.407324
0.541764 0.782161 0.407327
0.545168 0.782758 0.407357
0.566241 0.789382 0.407697
0.733718 0.868964 0.350083
0.850776 0.922473 0.222960
0.934571 0.952662 0.168059
0.975127 0.964635 0.184722
0.994765 0.970275 0.209006
1.000018 0.972175 0.215913
0.520970 0.783460 0.409938
0.524705 0.784181 0.410039
0.528096 0.784966 0.410447
0.531178 0.785569 0.410415
0.534447 0.786323 0.410437
0.537762 0.787024 0.410486
0.541042 0.787736 0.410537
0.544424 0.788556 0.410584
0.547755 0.789281 0.410617
0.558328 0.792110 0.410697
0.708215 0.861125 0.372070
0.829980 0.920117 0.247165
0.919309 0.954023 0.174993
0.967865 0.968530 0.185912
0.989244 0.974315 0.211207
0.999923 0.977550 0.231193
0.006751 0.022650 0.053711
0.010838 0.022515 0.053979
0.051633 0.021132 0.059670
0.173324 0.016309 0.068401
0.368444 0.017297 0.075306
0.551343 0.031043 0.092189
0.697973 0.048142 0.114061
0.827477 0.064903 0.138471
0.908719 0.074539 0.162136
0.916636 0.072398 0.177962
0.924366 0.072029 0.190913
0.932374 0.072602 0.201841
0.940551 0.073979 0.210245
0.948552 0.075999 0.216521
0.957106 0.078272 0.220767
0.964945 0.080480 0.223200
0.006895 0.025852 0.053828
0.011283 0.025974 0.054106
0.051017 0.025292 0.059615
0.164576 0.021837 0.067862
0.347658 0.022779 0.073033
0.529053 0.036254 0.088019
0.674484 0.054513 0.105275
0.802505 0.073383 0.124677
0.902966 0.086589 0.146747
0.919313 0.085064 0.162760
0.927203 0.083978 0.175727
0.935479 0.083807 0.186138
0.943617 0.084820 0.194213
0.952059 0.086645 0.200134
0.960452 0.088578 0.204077
0.968316 0.090489 0.206514
0.007472 0.037772 0.057584
0.011213 0.037920 0.057900
0.040507 0.038374 0.061815
0.160258 0.033847 0.069568
0.344953 0.030211 0.073410
0.528369 0.043560 0.085026
0.674823 0.063274 0.101387
0.803168 0.081517 0.123694
0.904095 0.093949 0.148449
0.920108 0.092197 0.165919
0.928221 0.091087 0.179196
0.936279 0.091183 0.189950
0.944427 0.092205 0.198282
0.952862 0.094029 0.204238
0.961093 0.096178 0.208353
0.969341 0.098224 0.210866
0.013002 0.103354 0.081504
0.017676 0.103098 0.081351
0.021949 0.103186 0.081751
0.128430 0.115179 0.089212
0.367515 0.136625 0.094216
0.553896 0.149618 0.102231
0.696801 0.159865 0.118291
0.822642 0.157269 0.137867
0.915836 0.135165 0.158721
0.923469 0.114561 0.175239
0.929534 0.103135 0.188092
0.937268 0.101236 0.199164
0.945465 0.101959 0.207520
0.953317 0.104141 0.213938
0.961936 0.106875 0.217868
0.969944 0.109380 0.220323
0.037988 0.189086 0.096714
0.044377 0.189809 0.097229
0.049672 0.190967 0.098882
0.051874 0.191952 0.103859
0.310868 0.236590 0.105230
0.543794 0.262682 0.110074
0.691907 0.276960 0.125888
0.821054 0.284785 0.145623
0.929913 0.284476 0.167454
0.948456 0.272106 0.186818
0.954651 0.261849 0.199968
0.961132 0.254763 0.210446
0.968019 0.249900 0.218239
0.974759 0.247803 0.223672
0.982753 0.250107 0.227489
0.990100 0.251555 0.229891
0.105723 0.298356 0.122959
0.113109 0.298711 0.122635
0.120146 0.299318 0.122463
0.122959 0.300697 0.125965
0.125142 0.297938 0.126712
0.487152 0.378709 0.107238
0.661399 0.399489 0.116861
0.801699 0.391161 0.142014
0.928733 0.397486 0.165722
0.964922 0.393341 0.188785
0.970473 0.380087 0.204524
0.975590 0.367257 0.215867
0.981353 0.357057 0.224157
0.986667 0.350712 0.229708
0.993480 0.346762 0.233222
0.999731 0.342581 0.235089
0.185400 0.408490 0.176662
0.192663 0.408999 0.176715
0.199703 0.409839 0.176928
0.206101 0.410120 0.176887
0.210218 0.407577 0.175043
0.308141 0.422961 0.171196
0.613495 0.506058 0.124293
0.752999 0.520684 0.115144
0.900730 0.502858 0.149949
0.973763 0.483842 0.182027
0.979628 0.475985 0.201614
0.985846 0.475180 0.214431
0.991033 0.474995 0.223405
0.993999 0.474515 0.229322
0.997499 0.473635 0.233227
1.000054 0.470884 0.235314
0.279480 0.507253 0.232426
0.285971 0.507584 0.232631
0.292599 0.508464 0.233158
0.298646 0.508876 0.233392
0.302528 0.507325 0.232217
0.304681 0.503791 0.229825
0.471552 0.542695 0.233500
0.700308 0.612998 0.158463
