Prize Luts/Video/Cinematic - LOG 33.cube
LUT_3D_SIZE 6
0.000000 0.000000 0.000000
0.086962 0.000951 0.002351
0.367427 0.005743 0.009596
0.627103 0.008811 0.031486
0.850853 0.010624 0.044057
0.964218 0.011099 0.049858
0.004244 0.079429 0.004897
0.086751 0.042124 0.005823
0.310500 0.102325 0.015477
0.565199 0.134304 0.030658
0.785069 0.127318 0.048005
0.899566 0.119828 0.055589
0.017425 0.336171 0.037431
0.164725 0.330610 0.039153
0.355649 0.252381 0.029865
0.606414 0.274380 0.048387
0.831490 0.296077 0.067345
0.946720 0.301502 0.074608
0.054418 0.577131 0.089978
0.170291 0.583728 0.091308
0.521545 0.614310 0.105050
0.648004 0.477729 0.083992
0.883170 0.450080 0.092237
0.997201 0.455556 0.098463
0.077425 0.780709 0.133725
0.174640 0.796735 0.135859
0.490861 0.829657 0.147589
0.869873 0.876291 0.168262
0.870207 0.647389 0.124872
1.001913 0.629557 0.126822
0.091667 0.944713 0.167279
0.190491 0.966750 0.170536
0.483969 1.005625 0.182530
0.849689 1.031622 0.200750
0.991594 0.909671 0.181206
1.002951 0.798919 0.157283
-0.024079 -0.427800 -0.079442
0.047721 -0.435425 0.052474
0.327930 -0.448143 0.107988
0.580405 -0.452679 0.130454
0.812081 -0.405876 0.135840
0.943735 -0.356876 0.140542
0.003921 0.079283 0.074935
0.083041 0.035899 0.071616
0.447925 -0.058310 -0.039808
0.708039 -0.054091 -0.013659
0.940398 -0.053178 0.042905
1.010793 -0.025308 0.101273
0.011252 0.337317 0.117536
-0.088548 0.440959 0.053035
0.411904 0.296964 0.074264
0.735437 0.282166 0.058253
0.966872 0.281641 0.071246
1.003376 0.324238 0.116870
0.016793 0.612645 0.142579
-0.053736 0.712748 0.117965
0.508743 0.734587 0.128923
0.733622 0.542321 0.116096
0.976745 0.484239 0.115472
1.007425 0.493847 0.160655
0.017968 0.838991 0.159285
-0.021742 0.916504 0.163897
0.407373 0.945484 0.168339
0.910664 0.984426 0.191597
0.974403 0.716304 0.144476
1.009986 0.654841 0.176761
0.018788 1.016440 0.182374
0.123325 1.029675 0.192710
0.415810 1.031249 0.200021
0.797342 1.038330 0.225440
0.999829 0.946597 0.214863
1.019578 0.834655 0.182191
-0.012216 -0.450295 0.227724
-0.041978 -0.457471 0.231234
0.350593 -0.455466 0.318672
0.599392 -0.457517 0.348387
0.818354 -0.428755 0.344346
0.949683 -0.381855 0.341918
0.004653 0.134538 0.241532
-0.054093 -0.070148 0.361969
0.459350 -0.028761 0.373666
0.711729 0.011894 0.294160
0.950065 -0.036650 0.258374
1.008594 0.037019 0.305073
0.011481 0.342053 0.279862
-0.018143 0.484244 0.377511
0.393722 0.334559 0.312248
0.772653 0.211254 0.166497
0.970622 0.221431 0.199379
1.004103 0.313336 0.288247
0.019747 0.624440 0.307565
0.023217 0.756081 0.304379
0.227011 0.840062 0.167009
0.708477 0.576806 0.302064
0.978397 0.542333 0.268256
1.009753 0.564860 0.348674
0.025381 0.852984 0.308178
-0.022996 0.977755 0.289322
0.273523 0.975492 0.247311
0.778049 0.963262 0.291571
0.983725 0.765888 0.266028
1.013315 0.702897 0.353105
0.030437 1.030950 0.305182
0.057906 1.057945 0.355693
0.369965 1.041859 0.326708
0.716523 1.045418 0.362040
1.008460 1.004199 0.383742
1.024483 0.890136 0.334339
-0.015361 -0.452897 0.481110
-0.055181 -0.463871 0.383696
0.326317 -0.459493 0.542736
0.613334 -0.459509 0.591041
0.833024 -0.445141 0.585588
0.959225 -0.405578 0.576428
0.003869 0.172980 0.452924
-0.008070 -0.061776 0.585901
0.269434 -0.014630 0.650694
0.710539 0.018425 0.645738
0.956248 -0.043233 0.572226
0.996647 0.060950 0.552059
0.011807 0.392543 0.544529
0.008932 0.424661 0.706609
0.213243 0.289524 0.623221
0.803507 0.140884 0.664690
0.964700 0.224481 0.530366
0.999497 0.320076 0.547096
0.020005 0.638098 0.545437
0.023592 0.767592 0.657838
0.138822 0.790908 0.678410
0.691013 0.618298 0.594915
0.980336 0.552091 0.493950
1.006327 0.623237 0.605413
0.026967 0.870639 0.513694
0.019517 0.984934 0.550035
0.201368 0.995029 0.549280
0.585158 1.001204 0.439309
0.978004 0.800412 0.497169
1.010839 0.773615 0.608836
0.036374 1.037127 0.499368
0.074236 1.064255 0.582916
0.348306 1.051677 0.571277
0.642775 1.050299 0.588358
0.999920 1.051373 0.666664
1.021682 0.944776 0.580941
-0.016747 -0.453873 0.676594
-0.047526 -0.464896 0.454203
0.200354 -0.463964 0.759176
0.588280 -0.461907 0.820792
0.826671 -0.456033 0.831121
0.951587 -0.430015 0.816907
-0.001341 0.186606 0.684422
-0.002823 0.055221 0.818349
-0.127482 0.090749 0.948422
0.614840 0.032923 0.926308
0.936201 -0.042010 0.900974
0.979021 0.074842 0.813040
0.011095 0.417723 0.794423
-0.007227 0.413360 0.966098
0.036937 0.324594 0.995939
0.578699 0.161188 1.000693
0.953572 0.229827 0.897041
0.989606 0.322517 0.821091
0.020319 0.688508 0.888998
0.039201 0.745497 1.004370
0.157640 0.739060 1.000160
0.515847 0.557880 0.931317
0.966892 0.522414 0.878165
0.998553 0.618713 0.853054
0.026792 0.875513 0.782983
-0.033941 0.984964 0.889801
0.166529 1.005428 0.943214
0.435176 1.017923 0.899160
0.942999 0.837111 0.821601
1.004698 0.867356 0.888759
0.038265 1.039274 0.736625
0.084312 1.064037 0.810854
0.333735 1.063051 0.815709
0.629556 1.056491 0.848137
0.933102 1.061438 0.871996
1.015606 1.001245 0.875366
-0.016909 -0.453921 0.799347
-0.050914 -0.464399 0.557591
-0.152892 -0.459376 0.934188
0.493699 -0.457354 0.990329
0.784751 -0.457677 0.999821
0.922137 -0.458791 0.999744
-0.001717 0.188459 0.858591
-0.009550 0.136000 1.004785
-0.069091 0.080687 1.001224
0.481264 0.082527 1.000029
0.827896 0.077439 1.000031
0.947530 0.097534 0.999862
-0.004533 0.425158 0.986642
0.048444 0.452400 1.000019
0.123974 0.445470 1.000018
0.469513 0.317321 1.000018
0.838137 0.319203 1.000020
0.951494 0.344740 0.999958
0.051749 0.680242 1.000018
0.114477 0.699404 1.000018
0.295859 0.710873 1.000018
0.550230 0.626044 1.000018
0.855863 0.611850 1.000018
0.958351 0.637301 1.000018
0.116134 0.916364 1.000054
0.189087 0.910022 1.000022
0.379264 0.902169 1.000018
0.652765 0.889250 1.000018
0.847855 0.840538 1.000018
0.977684 0.887899 1.000018
0.035490 0.979827 0.965478
0.093008 0.993577 1.001116
0.381475 0.975010 0.999992
0.702130 0.963187 1.000032
0.941735 0.981272 1.000018
1.025118 0.994606 1.000018
