Prize Luts/Video/Cinematic Gold.cube
LUT_3D_SIZE 6
-0.007457 -0.006630 0.010147
0.043393 -0.007502 0.008246
0.268368 -0.009726 0.002984
0.519986 0.011615 0.002406
0.752024 0.018965 0.003995
0.888227 0.032564 0.006273
-0.008233 0.059148 0.014420
0.048549 0.069300 0.010627
0.334118 0.091933 0.002693
0.582840 0.100805 0.003418
0.801264 0.115930 0.005845
0.921004 0.123974 0.008455
-0.009148 0.186465 0.037508
0.058483 0.213675 0.031854
0.442114 0.296004 0.022814
0.732829 0.305226 0.021187
0.930850 0.302651 0.018943
1.031149 0.308153 0.025191
-0.009678 0.366929 0.097824
0.065029 0.393864 0.093476
0.254678 0.483500 0.033384
0.926953 0.627531 0.096658
1.082946 0.643346 0.153486
1.135119 0.636125 0.215586
-0.009816 0.557365 0.141584
0.065082 0.591553 0.138352
0.203870 0.689907 0.149491
0.928899 0.857064 0.263073
1.106923 0.883080 0.381477
1.145318 0.853280 0.412990
-0.009198 0.724534 0.174118
0.061765 0.770441 0.199897
0.346463 0.847837 0.282662
0.914575 0.951654 0.401025
1.086265 0.962022 0.472373
1.155715 0.963525 0.477695
-0.007421 -0.284586 -0.063661
0.042544 -0.291048 -0.067176
0.256419 -0.322621 -0.095698
0.487216 -0.376592 -0.112226
0.759944 -0.388874 -0.112397
0.896914 -0.390033 -0.122378
-0.004089 0.064824 0.074596
0.036411 0.067510 0.076511
0.337746 0.045340 0.042871
0.581063 0.021935 0.024820
0.784713 0.029628 0.018348
0.949969 0.094303 0.058699
-0.002944 0.194029 0.115042
0.019434 0.195815 0.069623
0.442951 0.298503 0.047367
0.735497 0.285384 0.036551
0.926438 0.276811 0.033659
1.043122 0.298673 0.087681
-0.003581 0.386097 0.187952
-0.014406 0.372491 0.120444
0.168562 0.470314 0.052200
0.930565 0.630567 0.116186
1.085285 0.638798 0.171338
1.136469 0.644242 0.295812
-0.005020 0.603551 0.251385
-0.014564 0.564828 0.163900
0.160286 0.686462 0.177085
0.916643 0.856279 0.278124
1.107016 0.883636 0.401177
1.145638 0.853948 0.459406
0.015861 0.784660 0.302898
0.069176 0.786258 0.282410
0.318575 0.840142 0.326315
0.921931 0.950050 0.434580
1.081577 0.958637 0.507931
1.150313 0.960005 0.519806
-0.050863 -0.315359 0.114392
0.046114 -0.314330 0.153695
0.223974 -0.323027 0.146260
0.523891 -0.375159 0.137802
0.852396 -0.384029 0.161190
0.976879 -0.384462 0.156381
-0.003387 0.091236 0.187278
0.048277 0.072706 0.213986
0.311171 0.033480 0.219856
0.663973 0.017552 0.192923
0.918516 0.032452 0.190864
1.012594 0.098069 0.202045
-0.002944 0.209143 0.217038
0.019362 0.216202 0.223404
0.283685 0.276953 0.260987
0.720944 0.183657 0.153925
0.960706 0.192645 0.149137
1.071911 0.306411 0.241917
-0.003581 0.420327 0.306557
0.012812 0.423322 0.298441
0.061897 0.489763 0.247757
0.931994 0.644460 0.237783
1.099768 0.637084 0.293111
1.139532 0.665987 0.429542
0.041984 0.695663 0.412681
0.056255 0.690158 0.393905
0.064318 0.666916 0.271488
0.824251 0.846592 0.314655
1.108252 0.884373 0.440970
1.145584 0.859209 0.522279
0.077605 0.845007 0.448161
0.141907 0.843841 0.440059
0.328575 0.853729 0.437355
0.945779 0.953430 0.524362
1.088866 0.956759 0.547653
1.153384 0.956882 0.547288
0.094595 -0.333175 0.271033
0.119013 -0.333390 0.307435
0.214718 -0.353835 0.316584
0.536496 -0.387360 0.291526
0.863252 -0.393827 0.319006
0.981839 -0.394063 0.308107
-0.003176 0.112986 0.336179
0.042103 0.083221 0.388695
0.289737 0.032448 0.440715
0.664672 0.018895 0.385226
0.918420 0.042373 0.380500
1.002429 0.118037 0.384901
-0.003176 0.255632 0.373203
0.014130 0.255596 0.389339
0.127035 0.240919 0.447402
0.732732 0.200163 0.466492
0.968908 0.221863 0.449528
1.081324 0.364022 0.488081
-0.009632 0.468272 0.455390
-0.008788 0.476399 0.462363
0.192693 0.605073 0.582008
0.786102 0.635920 0.581410
1.080858 0.597065 0.531832
1.133787 0.717670 0.645197
0.109018 0.769277 0.587053
0.131243 0.771187 0.582172
0.187050 0.784450 0.566877
0.709880 0.847561 0.563678
1.103194 0.892564 0.598784
1.142550 0.868276 0.679788
0.122209 0.876396 0.604182
0.193671 0.878384 0.608304
0.540094 0.936772 0.691639
0.980892 0.974764 0.771052
1.087545 0.983445 0.775510
1.159259 0.991383 0.802335
0.157668 -0.338802 0.430768
0.165691 -0.340656 0.462450
0.203234 -0.378466 0.488990
0.580092 -0.398623 0.465572
0.849924 -0.398753 0.484221
0.932686 -0.400836 0.450743
-0.002944 0.129428 0.501305
0.026757 0.077439 0.530237
0.256836 0.024881 0.596019
0.676265 0.031490 0.559114
0.896396 0.055250 0.546857
0.968675 0.127649 0.523777
-0.003176 0.289879 0.526564
0.013257 0.281061 0.539099
0.106287 0.220394 0.643751
0.680155 0.172124 0.672215
0.952007 0.225807 0.644726
1.053789 0.350761 0.673275
-0.021351 0.532792 0.629829
0.018949 0.535566 0.637380
0.162556 0.568995 0.740443
0.851071 0.714321 0.854538
1.077366 0.728489 0.849314
1.133948 0.787445 0.841064
0.120845 0.778344 0.757201
0.144229 0.779957 0.758735
0.211897 0.790234 0.768953
0.792935 0.877964 0.860853
1.046868 0.881213 0.858771
1.140811 0.892812 0.852680
0.138744 0.880766 0.770773
0.214441 0.882930 0.771338
0.624866 0.953992 0.844698
0.983176 0.987655 0.875306
1.084131 0.994178 0.886555
1.162506 0.999395 0.886555
0.172177 -0.338185 0.492995
0.176289 -0.340953 0.524365
0.172758 -0.379950 0.561400
0.549707 -0.399474 0.544354
0.825346 -0.402871 0.541829
0.926941 -0.403895 0.523139
-0.004902 0.125428 0.564266
0.050958 0.105678 0.588506
0.204654 0.054738 0.682971
0.659940 0.063600 0.654137
0.884680 0.090693 0.623008
0.965789 0.124294 0.601146
-0.003387 0.279411 0.584893
0.049988 0.277312 0.598281
0.116997 0.231603 0.684684
0.586677 0.187999 0.740062
0.939372 0.286555 0.741883
1.065876 0.368162 0.765340
-0.021289 0.512372 0.673653
0.052862 0.518032 0.692125
0.280903 0.566145 0.798153
0.889154 0.747973 0.884375
1.046947 0.764304 0.884387
1.128160 0.811460 0.890283
0.112576 0.743476 0.801525
0.165022 0.745808 0.802372
0.478822 0.793948 0.857004
0.869770 0.856497 0.890961
1.064784 0.894045 0.899449
1.136398 0.902482 0.898965
0.130857 0.842001 0.808179
0.199477 0.843754 0.809931
0.590042 0.916860 0.881612
0.943495 0.944879 0.897947
1.070902 0.956752 0.905000
1.146750 0.961504 0.904714
